!!!!SEGMENT: pl-wru--50044-muz--001-014_buchner-philipp-friedrich--plectrum-musicum-sonata-xiv.krn
!!!cenid: 16xx:1815
!!!COM: Buchner, Philipp Friedrich
!!!COM-rismID: pe30013776
!!!CDT: 1614/09/10-1669/03/23
!!!CNT: German
!!!GTL: Plectrum musicum
!!!OTL: Sonata XIV
!!!OMV: 014
!!!PDT: 1662
!!!AGN: Secular; Sonata
!!!YEC: Copyright 2022 Narodowy Instytut Fryderyka Chopina (https://polishscores.org)
!!!YEM: License CC-BY-4.0 (https://creativecommons.org/licenses/by/4.0)
!!!SMS-siglum: PL-WRu
!!!SMS-shelfmark: 50044 Muz.
!!!SMS-shelfwork: 001-014 G
!!!SMS-variant:
!!!SMS-altvar:
!!!NIFC-rismSourceID: 990007465
!!!NIFC-rismChildID: 990007465
!!!NIFC-islandoraID: none
!!!URL-pdf-islandora:
!!!URL-scan: https://www.bibliotekacyfrowa.pl/dlibra/doccontent?id=116 @EN{Scan on Digital Library of University of Wroclaw} @PL{Skany w portalu Biblioteka Cyfrowa Uniwersytetu Wrocławskiego}
!!!IIIF:
!!!ONB-nifc: UWAGA: Violino I: s. 13-14, Violino II: s. 27, Fagotto: s. 58, Bassus: s. 73, Bassus continuus: s. 88
!!!AIN: 1 fagot 2 violn
!!!key: C
**kern	**fba	**dynam	**kern	**fba	**dynam	**kern	**dynam	**kern	**dynam	**kern	**dynam
*part5	*	*	*part4	*	*	*part3	*	*part2	*	*part1	*
*staff5	*	*	*staff4	*	*	*staff3	*	*staff2	*	*staff1	*
*I"BASSUS Continuus	*	*	*I"BASSUS	*	*	*I"VIOLINO II.	*	*I"VIOLINO	*	*I"F A G O T T O	*
*I'bc	*	*	*I'b	*	*	*I'vl 2	*	*I'vl 1	*	*I'fag	*
*	*	*	*	*	*	*ICstr	*	*ICstr	*	*ICww	*
*	*	*	*	*	*	*Ivioln	*	*Ivioln	*	*Ifagot	*
*IGcont	*	*	*IGcont	*	*	*	*	*	*	*	*
*clefF4	*	*	*clefF4	*	*	*clefG2	*	*clefG2	*	*clefF4	*
*k[]	*	*	*k[]	*	*	*k[]	*	*k[]	*	*k[]	*
*C:	*	*	*C:	*	*	*C:	*	*C:	*	*C:	*
*M2/2	*	*	*M2/2	*	*	*M2/2	*	*M2/2	*	*M2/2	*
*met(C|)	*	*	*met(C|)	*	*	*met(C|)	*	*met(C|)	*	*met(C|)	*
=1-	=1-	=1-	=1-	=1-	=1-	=1-	=1-	=1-	=1-	=1-	=1-
!LO:TX:b:B:t=Adagio.	!	!	!LO:TX:b:B:t=Adagio.	!	!	!LO:TX:b:B:t=Adagio.	!	!LO:TX:b:B:t=Adagio.	!	!LO:TX:b:B:t=Adagio.	!
!LO:TX:a:t=Sonata XIV.	!	!	!LO:TX:a:t=Sonata XIV.	!	!	!LO:TX:a:t=Sonata XIV.	!	!LO:TX:a:t=Sonata XIV.	!	!LO:TX:a:t=Sonata XIV.	!
4r	.	.	4r	.	.	4r	.	4r	.	4r	.
4c\	.	.	4c\	.	.	4ee\	.	4gg\	.	4c\	.
4B\	.	.	4B\	.	.	4dd\	.	4.gg\	.	4B\	.
4A\	7:6 #	.	4A\	7:6 #	.	4cc\	.	.	.	4A\	.
.	.	.	.	.	.	.	.	8ff#X\	.	.	.
=2-	=2-	=2-	=2-	=2-	=2-	=2-	=2-	=2-	=2-	=2-	=2-
4G\	.	.	4G\	.	.	4b/	.	4gg\	.	4G\	.
8r	.	.	8r	.	.	8r	.	8r	.	8r	.
8A\	.	.	8A\	.	.	8cc\	.	8ee\	.	8A\	.
4G\	6	.	4G\	6	.	4b/	.	4.ee\	.	4G\	.
!LO:TX:t=P:problem:kreska pseudotaktowa	!	!	!LO:TX:t=P:problem:kreska pseudotaktowa	!	!	!	!	!	!	!LO:TX:t=P:problem:kreska pseudotaktowa	!
4F\	7:6	.	4F\	7:6	.	4a/	.	.	.	4F\	.
!	!	!	!	!	!	!	!	!LO:TX:t=P:problem:kreska pseudotaktowa	!	!	!
.	.	.	.	.	.	.	.	8dd\	.	.	.
=3-	=3-	=3-	=3-	=3-	=3-	=3-	=3-	=3-	=3-	=3-	=3-
4E\	.	.	4E\	.	.	4g#X/	.	4ee\	.	4E\	.
8r	.	.	8r	.	.	8r	.	8r	.	8r	.
8F\	.	.	8F\	.	.	8a/	.	8cc\	.	8F\	.
4E\	.	.	4E\	.	.	4gny/	.	4.cc\	.	4E\	.
!	!	!	!	!	!	!LO:TX:t=P:problem:kreska pseudotaktowa	!	!	!	!	!
4D/	.	.	4D/	.	.	4f/	.	.	.	4D/	.
!	!	!	!	!	!	!	!	!LO:TX:t=P:problem:kreska pseudotaktowa	!	!	!
.	.	.	.	.	.	.	.	8b/	.	.	.
=4-	=4-	=4-	=4-	=4-	=4-	=4-	=4-	=4-	=4-	=4-	=4-
4.C/	.	.	4.C/	.	.	4.e/	.	4.cc\	.	4.C/	.
8C/	.	.	8C/	.	.	8cc\	.	8ee\	.	8C/	.
8G\	.	.	8G\	.	.	8b/	.	8dd\	.	8G\	.
8E\	6	.	8E\	6	.	8cc\	.	8ee\	.	8E\	.
8F\	.	.	8F\	.	.	8a/	.	8cc\	.	8F\	.
!LO:TX:t=P:problem:kreska pseudotaktowa	!	!	!LO:TX:t=P:problem:kreska pseudotaktowa	!	!	!LO:TX:t=P:problem:kreska pseudotaktowa	!	!LO:TX:t=P:problem:kreska pseudotaktowa	!	!LO:TX:t=P:problem:kreska pseudotaktowa	!
8D/	6	.	8D/	6	.	8b/	.	8dd\	.	8D/	.
=5-	=5-	=5-	=5-	=5-	=5-	=5-	=5-	=5-	=5-	=5-	=5-
8E\	.	.	8E\	.	.	8g/	.	8b/	.	8E\	.
8C/	.	.	8C/	.	.	8cc\	.	8ee\	.	8C/	.
8F\	.	.	8F\	.	.	8b/	.	8dd\	.	8G\	.
8A\	.	.	8A\	.	.	8a/	.	8cc\	.	8A\	.
[<2G\	.	.	[<2G\	.	.	4b/	.	4dd\	.	4G\	.
!	!	!	!	!	!	!LO:TX:t=P:problem:kreska pseudotaktowa	!	!	!	!LO:TX:t=P:problem:kreska pseudotaktowa	!
.	.	.	.	.	.	4r	.	8r	.	4r	.
!	!	!	!	!	!	!	!	!LO:TX:t=P:problem:kreska pseudotaktowa	!	!	!
.	.	.	.	.	.	.	.	8dd\	.	.	.
=6-	=6-	=6-	=6-	=6-	=6-	=6-	=6-	=6-	=6-	=6-	=6-
2G\]	.	.	2G\]	.	.	8r	.	8dd\	.	4r	.
.	.	.	.	.	.	8dd\	.	8b/	.	.	.
.	.	.	.	.	.	8dd\	.	8b/	.	8r	.
.	.	.	.	.	.	8b/	.	8g/	.	8G\	.
4E\	.	.	4E\	.	.	8b/	.	8g/	.	8G\	.
.	.	.	.	.	.	8g/	.	8gg\	.	8E\	.
4C/	.	.	4C/	.	.	8g/	.	8gg\	.	8E\	.
!	!	!	!	!	!	!LO:TX:t=P:problem:kreska pseudotaktowa	!	!	!	!	!
.	.	.	.	.	.	8gg\	.	8ee\	.	8C/	.
*	*	*	*	*	*	*	*	*custos:ee	*	*	*
!	!	!	!	!	!	!	!	!LO:LB:g=original	!	!	!
=7-	=7-	=7-	=7-	=7-	=7-	=7-	=7-	=7-	=7-	=7-	=7-
4B\	.	.	4B\	.	.	8gg\	.	8ee\	.	8C/	.
.	.	.	.	.	.	8ee\	.	8cc\	.	8c\	.
4A\	.	.	4A\	.	.	8ee\	.	8cc\	.	8c\	.
.	.	.	.	.	.	8cc\	.	8ccc\	.	8A\	.
*	*	*	*	*	*	*	*	*	*	*custos:A	*
!	!	!	!	!	!	!	!	!	!	!LO:LB:g=original	!
[<2F\	.	.	[<2F\	.	.	8cc\	.	8ccc\	.	8A\	.
.	.	.	.	.	.	8ccc\	.	8aa\	.	8F\	.
!	!	!	!	!	!	!	!	!	!	!LO:TX:t=P:problem:kreska pseudotaktowa	!
.	.	.	.	.	.	8ccc\	.	8aa\	.	4F\	.
!	!	!	!	!	!	!	!	!LO:TX:t=P:problem:kreska pseudotaktowa	!	!	!
.	.	.	.	.	.	8aa\	.	8ffny\	.	.	.
*	*	*	*	*	*	*custos:aa	*	*	*	*	*
!	!	!	!	!	!	!LO:LB:g=original	!	!	!	!	!
=8-	=8-	=8-	=8-	=8-	=8-	=8-	=8-	=8-	=8-	=8-	=8-
2F\]	.	.	2F\]	.	.	8aa\	.	4ff\	.	2r	.
.	.	.	.	.	.	8ff\	.	.	.	.	.
.	.	.	.	.	.	4ff\	.	4r	.	.	.
4c\	.	.	4c\	.	.	8r	.	8r	.	8r	.
.	.	.	.	.	.	4e/	.	4g/	.	8c\	.
8B\	.	.	8B\	.	.	.	.	.	.	8B\	.
!	!	!	!	!	!	!LO:TX:t=P:problem:kreska pseudotaktowa	!	!LO:TX:t=P:problem:kreska pseudotaktowa	!	!LO:TX:t=P:problem:kreska pseudotaktowa	!
8A\	.	.	8A\	.	.	8f/	.	8a/	.	8A\	.
=9-	=9-	=9-	=9-	=9-	=9-	=9-	=9-	=9-	=9-	=9-	=9-
8G\	.	.	8G\	.	.	8g/	.	8b/	.	8G\	.
8F\	.	.	8F\	.	.	4a/	.	4cc\	.	8F\	.
8E\	.	.	8E\	.	.	.	.	.	.	8E\	.
8D/	.	.	8D/	.	.	8b/	.	8dd\	.	8D/	.
*custos:C	*	*	*custos:C	*	*	*	*	*	*	*	*
!LO:PB:g=original	!	!	!LO:PB:g=original	!	!	!	!	!	!	!	!
8C/	.	.	8C/	.	.	8cc\	.	8ee\	.	8C/	.
8F\	.	.	8F\	.	.	4a/	.	4cc\	.	8F\	.
8E\	.	.	8E\	.	.	.	.	.	.	8E\	.
!	!	!	!	!	!	!LO:TX:t=P:problem:kreska pseudotaktowa	!	!LO:TX:t=P:problem:kreska pseudotaktowa	!	!	!
8D/	.	.	8D/	.	.	8b/	.	8dd\	.	8D/	.
=10-	=10-	=10-	=10-	=10-	=10-	=10-	=10-	=10-	=10-	=10-	=10-
8C/	.	.	8C/	.	.	8cc\	.	8ee\	.	8C/	.
8BB-X/	.	.	8BB-X/	.	.	4dd\	.	4ff\	.	8BB-X/	.
8AA/	.	.	8AA/	.	.	.	.	.	.	8AA/	.
8GG/	.	.	8GG/	.	.	8ee\	.	8gg\	.	8GG/	.
2FF/	6	.	2FF/	6	.	8ff\	.	8aa\	.	2FF/	.
.	.	.	.	.	.	4dd\	.	4ff\	.	.	.
!	!	!	!	!	!	!LO:TX:t=P:problem:kreska pseudotaktowa	!	!LO:TX:t=P:problem:kreska pseudotaktowa	!	!	!
.	.	.	.	.	.	8cc\	.	8ee\	.	.	.
=11-	=11-	=11-	=11-	=11-	=11-	=11-	=11-	=11-	=11-	=11-	=11-
[2GG/	.	.	[2GG/	.	.	8b/	.	8dd\	.	2.GG/	.
.	.	.	.	.	.	4g/	.	4b/	.	.	.
.	.	.	.	.	.	8a/	.	8cc\	.	.	.
!LO:TX:t=P:problem:kreska pseudotaktowa	!	!	!LO:TX:t=P:problem:kreska pseudotaktowa	!	!	!	!	!	!	!	!
2GG/]	3:4:3	.	2GG/]	3:4:3	.	8b/	.	8dd\	.	.	.
.	.	.	.	.	.	4cc\	.	8ee\	.	.	.
!	!	!	!	!	!	!	!	!LO:TX:t=P:problem:kreska pseudotaktowa	!	!	!
.	.	.	.	.	.	.	.	4dd\	.	4GG/	.
.	.	.	.	.	.	8b/	.	.	.	.	.
!	!	!	!	!	!	!	!	!LO:TX:b:B:t=allegro.	!	!	!
=12-	=12-	=12-	=12-	=12-	=12-	=12-	=12-	=12-	=12-	=12-	=12-
2.C/	.	.	2.C/	.	.	2cc\	.	8cc\	.	2C/	.
.	.	.	.	.	.	.	.	16cc\	.	.	.
.	.	.	.	.	.	.	.	16b/	.	.	.
.	.	.	.	.	.	.	.	8cc\	.	.	.
.	.	.	.	.	.	.	.	8cc\	.	.	.
!	!	!	!	!	!	!LO:TX:t=P:problem:kreska pseudotaktowa	!	!	!	!	!
.	.	.	.	.	.	2r	.	8.gg\	.	2r	.
.	.	.	.	.	.	.	.	32ff\	.	.	.
.	.	.	.	.	.	.	.	32ee\	.	.	.
4BBny/	.	.	4BBny/	.	.	.	.	8dd\	.	.	.
.	.	.	.	.	.	.	.	8dd\	.	.	.
*	*	*	*	*	*	*	*	*custos:ee	*	*	*
!	!	!	!	!	!	!	!	!LO:LB:g=original	!	!	!
=13-	=13-	=13-	=13-	=13-	=13-	=13-	=13-	=13-	=13-	=13-	=13-
2C/	.	.	2C/	.	.	2r	.	8ee\	.	1r	.
.	.	.	.	.	.	.	.	16cc\	.	.	.
.	.	.	.	.	.	.	.	16dd\	.	.	.
.	.	.	.	.	.	.	.	16ee\	.	.	.
.	.	.	.	.	.	.	.	16cc\	.	.	.
.	.	.	.	.	.	.	.	16gg\	.	.	.
.	.	.	.	.	.	.	.	16aa\	.	.	.
!	!	!	!	!	!	!LO:TX:b:B:t=allegro.	!	!	!	!	!
4G\	6	.	4G\	6	.	8r	.	8bb\	.	.	.
.	.	.	.	.	.	8ee\	.	8gg\	.	.	.
!	!	!	!	!	!	!	!	!LO:TX:t=P:problem:kreska pseudotaktowa:miXdzy nutX a kropkX	!	!	!
4A\	.	.	4A\	.	.	8ee\	.	4.ccc\	.	.	.
.	.	.	.	.	.	8ee\	.	.	.	.	.
=14-	=14-	=14-	=14-	=14-	=14-	=14-	=14-	=14-	=14-	=14-	=14-
4F\	6 5	.	4F\	6 5	.	8dd\	.	.	.	2r	.
.	.	.	.	.	.	8dd\	.	8ccc\	.	.	.
4G\	.	.	4G\	.	.	8dd\	.	4bb\	.	.	.
.	.	.	.	.	.	8dd\	.	.	.	.	.
!LO:TX:t=P:problem:kreska pseudotaktowa	!	!	!LO:TX:t=P:problem:kreska pseudotaktowa	!	!	!	!	!	!	!	!
2C/	.	.	2C/	.	.	8cc\	.	4ccc\	.	8r	.
!	!	!	!	!	!	!	!	!	!	!LO:TX:b:B:t=allegro.	!
.	.	.	.	.	.	16c/	.	.	.	16C/	.
.	.	.	.	.	.	16d/	.	.	.	16BBny/	.
.	.	.	.	.	.	16e/	.	4r	.	8C/	.
.	.	.	.	.	.	16c/	.	.	.	.	.
!	!	!	!	!	!	!	!	!	!	!LO:TX:t=P:problem:kreska pseudotaktowa	!
.	.	.	.	.	.	16g/	.	.	.	8C/	.
.	.	.	.	.	.	16a/	.	.	.	.	.
*	*	*	*	*	*	*custos:b	*	*	*	*	*
!	!	!	!	!	!	!LO:LB:g=original	!	!	!	!	!
=15-	=15-	=15-	=15-	=15-	=15-	=15-	=15-	=15-	=15-	=15-	=15-
4G\	.	.	4G\	.	.	8b/	.	8r	.	8.G\	.
.	.	.	.	.	.	16d/	.	8dd\	.	.	.
.	.	.	.	.	.	16e/	.	.	.	32F\	.
.	.	.	.	.	.	.	.	.	.	32E\	.
4D/	.	.	4D/	.	.	16f/	.	8dd\	.	8D/	.
.	.	.	.	.	.	16d/	.	.	.	.	.
.	.	.	.	.	.	16a/	.	8dd\	.	8D/	.
.	.	.	.	.	.	16b/	.	.	.	.	.
*	*	*	*	*	*	*	*	*	*	*custos:E	*
!	!	!	!	!	!	!	!	!	!	!LO:LB:g=original	!
4E\	6	.	4E\	6	.	16cc\	.	8cc\	.	8E\	.
.	.	.	.	.	.	16g/	.	.	.	.	.
.	.	.	.	.	.	16ee\	.	8cc\	.	16C/	.
.	.	.	.	.	.	16ff\	.	.	.	16D/	.
!	!	!	!	!	!	!LO:TX:t=P:problem:kreska pseudotaktowa	!	!	!	!	!
4C/	.	.	4C/	.	.	4gg\	.	8cc\	.	16E\	.
.	.	.	.	.	.	.	.	.	.	16C/	.
.	.	.	.	.	.	.	.	8cc\	.	16G\	.
!	!	!	!	!	!	!	!	!	!	!LO:TX:t=P:problem:kreska pseudotaktowa	!
.	.	.	.	.	.	.	.	.	.	16A\	.
=16-	=16-	=16-	=16-	=16-	=16-	=16-	=16-	=16-	=16-	=16-	=16-
4G\	.	.	4G\	.	.	8r	.	8b/	.	8B\	.
.	.	.	.	.	.	8ee\	.	8gg\	.	8G\	.
[<4c\	.	.	[<4c\	.	.	8ee\	.	8gg\	.	4.c\	.
.	.	.	.	.	.	8ee\	.	8gg\	.	.	.
4c\]	4 2	.	4c\]	4 2	.	8dd\	.	8ff\	.	.	.
.	.	.	.	.	.	8dd\	.	8ff\	.	8c\	.
4B\	5	.	4B\	5	.	8dd\	.	8ff\	.	4B\	.
!	!	!	!	!	!	!LO:TX:t=P:problem:kreska pseudotaktowa	!	!LO:TX:t=P:problem:kreska pseudotaktowa	!	!	!
.	.	.	.	.	.	8dd\	.	8ff\	.	.	.
=17-	=17-	=17-	=17-	=17-	=17-	=17-	=17-	=17-	=17-	=17-	=17-
4c\	.	.	4c\	.	.	4cc\	.	8ee\	.	8c\	.
.	.	.	.	.	.	.	.	16c/	.	8C/	.
.	.	.	.	.	.	.	.	16d/	.	.	.
4C/	.	.	4C/	.	.	4r	.	16e/	.	8C/	.
.	.	.	.	.	.	.	.	16c/	.	.	.
.	.	.	.	.	.	.	.	16g/	.	8C/	.
.	.	.	.	.	.	.	.	16a/	.	.	.
2BB/	.	.	2BB/	.	.	8r	.	4b/	.	8BB/	.
.	.	.	.	.	.	8dd\	.	.	.	8BB/	.
!	!	!	!	!	!	!	!	!LO:TX:t=P:problem:kreska pseudotaktowa	!	!	!
.	.	.	.	.	.	8dd\	.	4r	.	8BB/	.
!	!	!	!	!	!	!	!	!	!	!LO:TX:t=P:problem:kreska pseudotaktowa	!
.	.	.	.	.	.	8dd\	.	.	.	8BB/	.
*	*	*	*	*	*	*	*	*custos:a	*	*	*
!	!	!	!	!	!	!	!	!LO:LB:g=original	!	!	!
=18-	=18-	=18-	=18-	=18-	=18-	=18-	=18-	=18-	=18-	=18-	=18-
4AA/	.	.	4AA/	.	.	8cc\	.	8r	.	8AA/	.
.	.	.	.	.	.	8cc\	.	16a/	.	8A\	.
.	.	.	.	.	.	.	.	16b/	.	.	.
4A\	.	.	4A\	.	.	8cc\	.	16cc\	.	8A\	.
.	.	.	.	.	.	.	.	16a/	.	.	.
.	.	.	.	.	.	8cc\	.	16ee\	.	8A\	.
.	.	.	.	.	.	.	.	16ff\	.	.	.
2G\	.	.	2G\	.	.	8b/	.	8gg\	.	8G\	.
.	.	.	.	.	.	16g/	.	8bb\	.	8G\	.
.	.	.	.	.	.	16f#X/	.	.	.	.	.
.	.	.	.	.	.	8g/	.	8bb\	.	8G\	.
!	!	!	!	!	!	!LO:TX:t=P:problem:kreska pseudotaktowa	!	!LO:TX:t=P:problem:kreska pseudotaktowa	!	!	!
.	.	.	.	.	.	8g/	.	8bb\	.	8G\	.
=19-	=19-	=19-	=19-	=19-	=19-	=19-	=19-	=19-	=19-	=19-	=19-
2F\	6	.	2F\	6	.	8.dd\	.	8aa\	.	4F\	.
.	.	.	.	.	.	.	.	8aa\	.	.	.
.	.	.	.	.	.	32cc\	.	.	.	.	.
.	.	.	.	.	.	32b/	.	.	.	.	.
.	.	.	.	.	.	8a/	.	8aa\	.	4r	.
.	.	.	.	.	.	8a/	.	8aa\	.	.	.
*	*	*	*	*	*	*custos:b	*	*	*	*	*
!	!	!	!	!	!	!LO:LB:g=original	!	!	!	!	!
4E\	.	.	4E\	.	.	8b/	.	4gg\	.	2r	.
.	.	.	.	.	.	16g/	.	.	.	.	.
.	.	.	.	.	.	16a/	.	.	.	.	.
4G\	.	.	4G\	.	.	16b/	.	4r	.	.	.
.	.	.	.	.	.	16g/	.	.	.	.	.
.	.	.	.	.	.	16dd\	.	.	.	.	.
!	!	!	!	!	!	!LO:TX:t=P:problem:kreska pseudotaktowa	!	!	!	!	!
.	.	.	.	.	.	16ee\	.	.	.	.	.
=20-	=20-	=20-	=20-	=20-	=20-	=20-	=20-	=20-	=20-	=20-	=20-
4D/	#	.	4D/	#	.	8ff#X\	.	8r	.	1r	.
.	.	.	.	.	.	8dd\	.	8dd\	.	.	.
4BB/	6	.	4BB/	6	.	4.gg\	.	8dd\	.	.	.
.	.	.	.	.	.	.	.	8dd\	.	.	.
2AA/	7:6 #	.	2AA/	7:6 #	.	.	.	8cc\	.	.	.
.	.	.	.	.	.	8gg\	.	8cc\	.	.	.
.	.	.	.	.	.	4ff#X\	.	8cc\	.	.	.
.	.	.	.	.	.	.	.	8cc\	.	.	.
*custos:GG	*	*	*custos:GG	*	*	*	*	*	*	*	*
!LO:LB:g=original	!	!	!LO:LB:g=original	!	!	!	!	!	!	!	!
=21-	=21-	=21-	=21-	=21-	=21-	=21-	=21-	=21-	=21-	=21-	=21-
4GG/	.	.	4GG/	.	.	4gg\	.	8b/	.	8r	.
.	.	.	.	.	.	.	.	16g/	.	8G\	.
.	.	.	.	.	.	.	.	16a/	.	.	.
4G\	.	.	4G\	.	.	4r	.	16b/	.	8G\	.
.	.	.	.	.	.	.	.	16g/	.	.	.
.	.	.	.	.	.	.	.	16dd\	.	8G\	.
.	.	.	.	.	.	.	.	16ee\	.	.	.
!	!	!	!	!	!	!LO:TX:t=P:problem:kreska pseudotaktowa	!	!	!	!	!
2F\	.	.	2F\	.	.	2r	.	8ff\	.	8F\	.
.	.	.	.	.	.	.	.	16f/	.	8F\	.
.	.	.	.	.	.	.	.	16g/	.	.	.
.	.	.	.	.	.	.	.	16a/	.	8F\	.
.	.	.	.	.	.	.	.	16f/	.	.	.
.	.	.	.	.	.	.	.	16cc\	.	8F\	.
!	!	!	!	!	!	!	!	!LO:TX:t=P:problem:kreska pseudotaktowa	!	!	!
.	.	.	.	.	.	.	.	16dd\	.	.	.
*	*	*	*	*	*	*	*	*	*	*custos:E	*
!	!	!	!	!	!	!	!	!	!	!LO:LB:g=original	!
=22-	=22-	=22-	=22-	=22-	=22-	=22-	=22-	=22-	=22-	=22-	=22-
2E\	.	.	2E\	.	.	8r	.	8ee\	.	4E\	.
.	.	.	.	.	.	8gg\	.	16e/	.	.	.
.	.	.	.	.	.	.	.	16f/	.	.	.
*	*	*	*	*	*	*	*	*custos:g	*	*	*
!	!	!	!	!	!	!	!	!LO:LB:g=original	!	!	!
.	.	.	.	.	.	8gg\	.	16g/	.	4r	.
.	.	.	.	.	.	.	.	16e/	.	.	.
.	.	.	.	.	.	8gg\	.	16b/	.	.	.
.	.	.	.	.	.	.	.	16cc\	.	.	.
2D/	.	.	2D/	.	.	8ffny\	.	4dd\	.	8r	.
.	.	.	.	.	.	8ff\	.	.	.	16D/	.
.	.	.	.	.	.	.	.	.	.	16E\	.
.	.	.	.	.	.	8ff\	.	4r	.	16F\	.
.	.	.	.	.	.	.	.	.	.	16D/	.
!	!	!	!	!	!	!LO:TX:t=P:problem:kreska pseudotaktowa	!	!	!	!	!
.	.	.	.	.	.	8ff\	.	.	.	16A\	.
!	!	!	!	!	!	!	!	!	!	!LO:TX:t=P:problem:kreska pseudotaktowa	!
.	.	.	.	.	.	.	.	.	.	16B\	.
=23-	=23-	=23-	=23-	=23-	=23-	=23-	=23-	=23-	=23-	=23-	=23-
2C/	.	.	2C/	.	.	8ee\	.	8r	.	8c\	.
.	.	.	.	.	.	8ee\	.	8cc\	.	16C/	.
.	.	.	.	.	.	.	.	.	.	16D/	.
.	.	.	.	.	.	8ee\	.	8cc\	.	16E\	.
.	.	.	.	.	.	.	.	.	.	16C/	.
.	.	.	.	.	.	8ee\	.	8cc\	.	16E\	.
.	.	.	.	.	.	.	.	.	.	16F\	.
!LO:TX:t=P:problem:kreska pseudotaktowa	!	!	!LO:TX:t=P:problem:kreska pseudotaktowa	!	!	!	!	!	!	!	!
2GG/	.	.	2GG/	.	.	8dd\	.	8b/	.	8G\	.
.	.	.	.	.	.	16g/	.	8b/	.	16AA/	.
.	.	.	.	.	.	16a/	.	.	.	16FF#X/	.
.	.	.	.	.	.	16b/	.	8b/	.	8GG/	.
.	.	.	.	.	.	16g/	.	.	.	.	.
!	!	!	!	!	!	!	!	!LO:TX:t=P:problem:kreska pseudotaktowa	!	!LO:TX:t=P:problem:kreska pseudotaktowa	!
.	.	.	.	.	.	16dd\	.	8b/	.	8GG/	.
!	!	!	!	!	!	!LO:TX:t=P:problem:kreska pseudotaktowa	!	!	!	!	!
.	.	.	.	.	.	16ee\	.	.	.	.	.
=24-	=24-	=24-	=24-	=24-	=24-	=24-	=24-	=24-	=24-	=24-	=24-
4D/	-	.	4D/	-	.	4ff\	.	8a/	.	8.D/	.
.	.	.	.	.	.	.	.	16a/	.	.	.
!	!	!	!	!	!	!	!	!	!	!LO:TX:t=P:problem:LO:N:vis=16	!
.	.	.	.	.	.	.	.	16b/	.	32C/	.
.	.	.	.	.	.	.	.	.	.	32BB/	.
4AA/	.	.	4AA/	.	.	4r	.	16cc\	.	8AA/	.
.	.	.	.	.	.	.	.	16a/	.	.	.
.	.	.	.	.	.	.	.	16ee\	.	8AA/	.
.	.	.	.	.	.	.	.	16ff\	.	.	.
!	!	!	!	!	!	!LO:TX:t=P:problem:kreska pseudotaktowa	!	!	!	!	!
4BB/	.	.	4BB/	.	.	2r	.	4gg\	.	8BB/	.
.	.	.	.	.	.	.	.	.	.	16GG/	.
.	.	.	.	.	.	.	.	.	.	16AA/	.
4GG/	.	.	4GG/	.	.	.	.	4r	.	16BB/	.
.	.	.	.	.	.	.	.	.	.	16GG/	.
.	.	.	.	.	.	.	.	.	.	16D/	.
!	!	!	!	!	!	!	!	!	!	!LO:TX:t=P:problem:kreska pseudotaktowa	!
.	.	.	.	.	.	.	.	.	.	16E\	.
=25-	=25-	=25-	=25-	=25-	=25-	=25-	=25-	=25-	=25-	=25-	=25-
4D/	#	.	4D/	#	.	8r	.	1r	.	8F#X\	.
.	.	.	.	.	.	8dd\	.	.	.	8D/	.
4BB/	.	.	4BB/	.	.	8dd\	.	.	.	4.G\	.
.	.	.	.	.	.	8dd\	.	.	.	.	.
*	*	*	*	*	*	*custos:cc	*	*	*	*	*
!	!	!	!	!	!	!LO:LB:g=original	!	!	!	!	!
4C/	.	.	4C/	.	.	8cc\	.	.	.	.	.
.	.	.	.	.	.	8cc\	.	.	.	8G\	.
4AA/	6 #	.	4AA/	6 #	.	8cc\	.	.	.	4F#X\	.
!	!	!	!	!	!	!LO:TX:t=P:problem:kreska pseudotaktowa	!	!	!	!	!
.	.	.	.	.	.	8cc\	.	.	.	.	.
*	*	*	*	*	*	*	*	*	*	*custos:G	*
!	!	!	!	!	!	!	!	!	!	!LO:LB:g=original	!
=26-	=26-	=26-	=26-	=26-	=26-	=26-	=26-	=26-	=26-	=26-	=26-
4GG/	.	.	4GG/	.	.	8b/	.	8r	.	4G\	.
.	.	.	.	.	.	16g/	.	16g/	.	.	.
.	.	.	.	.	.	16a/	.	16f#X/	.	.	.
4G\	.	.	4G\	.	.	16b/	.	8g/	.	4r	.
.	.	.	.	.	.	16g/	.	.	.	.	.
.	.	.	.	.	.	16dd\	.	8g/	.	.	.
.	.	.	.	.	.	16ee\	.	.	.	.	.
!LO:TX:t=P:problem:kreska pseudotaktowa	!	!	!LO:TX:t=P:problem:kreska pseudotaktowa	!	!	!	!	!	!	!	!
2F#X\	.	.	2F#X\	.	.	4ff#X\	.	8.dd\	.	2r	.
.	.	.	.	.	.	.	.	32cc\	.	.	.
.	.	.	.	.	.	.	.	32b/	.	.	.
!	!	!	!	!	!	!LO:TX:t=P:problem:kreska pseudotaktowa	!	!	!	!	!
.	.	.	.	.	.	4r	.	8a/	.	.	.
!	!	!	!	!	!	!	!	!LO:TX:t=P:problem:kreska pseudotaktowa	!	!	!
.	.	.	.	.	.	.	.	8a/	.	.	.
=27-	=27-	=27-	=27-	=27-	=27-	=27-	=27-	=27-	=27-	=27-	=27-
2G\	.	.	2G\	.	.	1r	.	8b/	.	1r	.
.	.	.	.	.	.	.	.	16g/	.	.	.
.	.	.	.	.	.	.	.	16a/	.	.	.
.	.	.	.	.	.	.	.	16b/	.	.	.
.	.	.	.	.	.	.	.	16g/	.	.	.
.	.	.	.	.	.	.	.	16dd\	.	.	.
.	.	.	.	.	.	.	.	16ee\	.	.	.
4D/	#	.	4D/	#	.	.	.	8ff#X\	.	.	.
.	.	.	.	.	.	.	.	8dd\	.	.	.
*	*	*	*	*	*	*	*	*custos:gg	*	*	*
!	!	!	!	!	!	!	!	!LO:LB:g=original	!	!	!
4E\	.	.	4E\	.	.	.	.	4.gg\	.	.	.
=28-	=28-	=28-	=28-	=28-	=28-	=28-	=28-	=28-	=28-	=28-	=28-
2AA/	7:6 #	.	2AA/	7:6 #	.	8r	.	.	.	2r	.
.	.	.	.	.	.	8cc\	.	8gg\	.	.	.
.	.	.	.	.	.	8cc\	.	4ff#X\	.	.	.
.	.	.	.	.	.	8cc\	.	.	.	.	.
!LO:TX:t=P:problem:kreska pseudotaktowa	!	!	!LO:TX:t=P:problem:kreska pseudotaktowa	!	!	!	!	!	!	!	!
2GG/	.	.	2GG/	.	.	8b/	.	8gg\	.	8r	.
.	.	.	.	.	.	8b/	.	8gg\	.	16GG/	.
.	.	.	.	.	.	.	.	.	.	16AA/	.
.	.	.	.	.	.	8b/	.	8gg\	.	16BB/	.
.	.	.	.	.	.	.	.	.	.	16GG/	.
.	.	.	.	.	.	8b/	.	8gg\	.	16D\	.
!	!	!	!	!	!	!	!	!	!	!LO:TX:t=P:problem:kreska pseudotaktowa	!
.	.	.	.	.	.	.	.	.	.	16E\	.
=29-	=29-	=29-	=29-	=29-	=29-	=29-	=29-	=29-	=29-	=29-	=29-
2D/	.	.	2D/	.	.	4a/	.	8ffny\	.	8Fny\	.
.	.	.	.	.	.	.	.	8ff\	.	16D/	.
.	.	.	.	.	.	.	.	.	.	16E\	.
!	!	!	!	!	!	!LO:TX:t=P:problem:kreska pseudotaktowa	!	!	!	!	!
.	.	.	.	.	.	4r	.	8ff\	.	16F\	.
.	.	.	.	.	.	.	.	.	.	16D/	.
.	.	.	.	.	.	.	.	8ff\	.	16A\	.
.	.	.	.	.	.	.	.	.	.	16B\	.
4C/	.	.	4C/	.	.	8r	.	4ee\	.	8c\	.
.	.	.	.	.	.	16cc\	.	.	.	8c\	.
.	.	.	.	.	.	16dd\	.	.	.	.	.
4c\	.	.	4c\	.	.	16ee\	.	4r	.	8c\	.
.	.	.	.	.	.	16cc\	.	.	.	.	.
!	!	!	!	!	!	!	!	!	!	!LO:TX:t=P:problem:kreska pseudotaktowa	!
.	.	.	.	.	.	16gg\	.	.	.	8c\	.
!	!	!	!	!	!	!LO:TX:t=P:problem:kreska pseudotaktowa	!	!	!	!	!
.	.	.	.	.	.	16aa\	.	.	.	.	.
=30-	=30-	=30-	=30-	=30-	=30-	=30-	=30-	=30-	=30-	=30-	=30-
2B\	6	.	2B\	6	.	8bb\	.	2r	.	8B\	.
.	.	.	.	.	.	16g/	.	.	.	8B\	.
.	.	.	.	.	.	16a/	.	.	.	.	.
.	.	.	.	.	.	8b/	.	.	.	8B\	.
.	.	.	.	.	.	8g/	.	.	.	8B\	.
!LO:TX:t=P:problem:kreska pseudotaktowa	!	!	!LO:TX:t=P:problem:kreska pseudotaktowa	!	!	!	!	!	!	!	!
2A\	.	.	2A\	.	.	8r	.	8r	.	8A\	.
.	.	.	.	.	.	16a/	.	8cc\	.	8A\	.
.	.	.	.	.	.	16b/	.	.	.	.	.
.	.	.	.	.	.	16cc\	.	8cc\	.	8A\	.
.	.	.	.	.	.	16a/	.	.	.	.	.
!	!	!	!	!	!	!	!	!LO:TX:t=P:problem:kreska pseudotaktowa	!	!	!
.	.	.	.	.	.	16ee\	.	8cc\	.	8A\	.
.	.	.	.	.	.	16ffny\	.	.	.	.	.
*	*	*	*	*	*	*custos:gg	*	*	*	*	*
!	!	!	!	!	!	!LO:PB:g=original	!	!	!	!	!
=31-	=31-	=31-	=31-	=31-	=31-	=31-	=31-	=31-	=31-	=31-	=31-
4G\	.	.	4G\	.	.	4gg\	.	8b/	.	8G\	.
.	.	.	.	.	.	.	.	8b/	.	16GG/	.
.	.	.	.	.	.	.	.	.	.	16FF#X/	.
4GG/	.	.	4GG/	.	.	8r	.	8b/	.	8GG/	.
.	.	.	.	.	.	16dd\	.	8b/	.	8GG/	.
.	.	.	.	.	.	16ee\	.	.	.	.	.
4D/	.	.	4D/	.	.	4ff\	.	8a/	.	8.D/	.
.	.	.	.	.	.	.	.	16a/	.	.	.
.	.	.	.	.	.	.	.	16b/	.	32C/	.
.	.	.	.	.	.	.	.	.	.	32BB/	.
!	!	!	!	!	!	!LO:TX:t=P:problem:kreska pseudotaktowa	!	!	!	!	!
4AA/	.	.	4AA/	.	.	4r	.	16cc\	.	8AA/	.
.	.	.	.	.	.	.	.	16a/	.	.	.
.	.	.	.	.	.	.	.	16ee\	.	8AA/	.
!	!	!	!	!	!	!	!	!LO:TX:t=P:problem:kreska pseudotaktowa	!	!	!
.	.	.	.	.	.	.	.	16ff\	.	.	.
*	*	*	*	*	*	*	*	*	*	*custos:E	*
!	!	!	!	!	!	!	!	!	!	!LO:LB:g=original	!
=32-	=32-	=32-	=32-	=32-	=32-	=32-	=32-	=32-	=32-	=32-	=32-
8E\	.	.	8E\	.	.	8r	.	4gg\	.	8E\	.
8C/	.	.	8C/	.	.	16cc\	.	.	.	16C/	.
.	.	.	.	.	.	16dd\	.	.	.	16BB/	.
4C/	.	.	4C/	.	.	16ee\	.	4r	.	8C/	.
.	.	.	.	.	.	16cc\	.	.	.	.	.
.	.	.	.	.	.	16gg\	.	.	.	8C/	.
.	.	.	.	.	.	16aa\	.	.	.	.	.
4G\	.	.	4G\	.	.	4bb\	.	8r	.	8.G\	.
.	.	.	.	.	.	.	.	16dd\	.	.	.
.	.	.	.	.	.	.	.	16ee\	.	32F\	.
.	.	.	.	.	.	.	.	.	.	32E\	.
!LO:TX:t=P:problem:kreska pseudotaktowa	!	!	!LO:TX:t=P:problem:kreska pseudotaktowa	!	!	!LO:TX:t=P:problem:kreska pseudotaktowa	!	!	!	!	!
4D/	.	.	4D/	.	.	4r	.	16ff\	.	8D/	.
.	.	.	.	.	.	.	.	16fny/	.	.	.
!	!	!	!	!	!	!	!	!	!	!LO:TX:t=P:problem:kreska pseudotaktowa	!
.	.	.	.	.	.	.	.	16a/	.	8D/	.
!	!	!	!	!	!	!	!	!LO:TX:t=P:problem:kreska pseudotaktowa	!	!	!
.	.	.	.	.	.	.	.	16b/	.	.	.
=33-	=33-	=33-	=33-	=33-	=33-	=33-	=33-	=33-	=33-	=33-	=33-
4.AA/	.	.	4.AA/	.	.	2r	.	4cc\	.	8A\	.
.	.	.	.	.	.	.	.	.	.	16AA/	.
.	.	.	.	.	.	.	.	.	.	16BB/	.
.	.	.	.	.	.	.	.	4r	.	16C/	.
.	.	.	.	.	.	.	.	.	.	16AA/	.
8E\	.	.	8E\	.	.	.	.	.	.	16E\	.
.	.	.	.	.	.	.	.	.	.	16F\	.
*custos:G	*	*	*custos:G	*	*	*	*	*	*	*	*
!LO:LB:g=original	!	!	!LO:LB:g=original	!	!	!	!	!	!	!	!
8G\	.	.	8G\	.	.	8r	.	8r	.	8G\	.
8E\	6	.	8E\	6	.	8ee\	.	16cc\	.	8E\	.
.	.	.	.	.	.	.	.	16b/	.	.	.
!LO:TX:t=P:problem:kreska pseudotaktowa	!	!	!LO:TX:t=P:problem:kreska pseudotaktowa	!	!	!	!	!	!	!	!
[<4c\	.	.	[<4c\	.	.	8ee\	.	8cc\	.	4.c\	.
.	.	.	.	.	.	8ee\	.	8cc\	.	.	.
*	*	*	*	*	*	*	*	*custos:gg	*	*	*
!	!	!	!	!	!	!	!	!LO:LB:g=original	!	!	!
=34-	=34-	=34-	=34-	=34-	=34-	=34-	=34-	=34-	=34-	=34-	=34-
4c\]	.	.	4c\]	.	.	8dd\	.	8.gg\	.	.	.
.	.	.	.	.	.	8dd\	.	.	.	8c\	.
.	.	.	.	.	.	.	.	32ff\	.	.	.
.	.	.	.	.	.	.	.	32ee\	.	.	.
4B\	.	.	4B\	.	.	8dd\	.	8dd\	.	4B\	.
.	.	.	.	.	.	8dd\	.	8dd\	.	.	.
2A\	.	.	2A\	.	.	4cc\	.	8ee\	.	4c\	.
.	.	.	.	.	.	.	.	16cc\	.	.	.
.	.	.	.	.	.	.	.	16dd\	.	.	.
!	!	!	!	!	!	!LO:TX:t=P:problem:kreska pseudotaktowa	!	!	!	!	!
.	.	.	.	.	.	4r	.	16ee\	.	4r	.
.	.	.	.	.	.	.	.	16cc\	.	.	.
.	.	.	.	.	.	.	.	16ee\	.	.	.
.	.	.	.	.	.	.	.	16ff\	.	.	.
=35-	=35-	=35-	=35-	=35-	=35-	=35-	=35-	=35-	=35-	=35-	=35-
[<2G\	.	.	[<2G\	.	.	8r	.	8gg\	.	1r	.
.	.	.	.	.	.	16g/	.	8bb\	.	.	.
.	.	.	.	.	.	16f#X/	.	.	.	.	.
.	.	.	.	.	.	8g/	.	8bb\	.	.	.
.	.	.	.	.	.	8g/	.	8bb\	.	.	.
4G\]	6 2	.	4G\]	6 2	.	8.dd\	.	8aa\	.	.	.
.	.	.	.	.	.	.	.	8aa\	.	.	.
.	.	.	.	.	.	32cc\	.	.	.	.	.
.	.	.	.	.	.	32b/	.	.	.	.	.
4F#X\	.	.	4F#X\	.	.	8a/	.	8aa\	.	.	.
!	!	!	!	!	!	!LO:TX:t=P:problem:kreska pseudotaktowa	!	!LO:TX:t=P:problem:kreska pseudotaktowa	!	!	!
.	.	.	.	.	.	8a/	.	8aa\	.	.	.
=36-	=36-	=36-	=36-	=36-	=36-	=36-	=36-	=36-	=36-	=36-	=36-
4G\	.	.	4G\	.	.	8b/	.	8gg\	.	8r	.
.	.	.	.	.	.	8bb\	.	8gg\	.	16GG/	.
.	.	.	.	.	.	.	.	.	.	16AA/	.
4GG/	.	.	4GG/	.	.	8bb\	.	8gg\	.	16BB/	.
.	.	.	.	.	.	.	.	.	.	16GG/	.
.	.	.	.	.	.	8bb\	.	8gg\	.	16D/	.
.	.	.	.	.	.	.	.	.	.	16E\	.
4.D/	.	.	4.D/	.	.	8aa\	.	8ff\	.	8F\	.
.	.	.	.	.	.	8aa\	.	8ff\	.	16D/	.
.	.	.	.	.	.	.	.	.	.	16E\	.
.	.	.	.	.	.	8aa\	.	8ff\	.	16F\	.
.	.	.	.	.	.	.	.	.	.	16D/	.
!	!	!	!	!	!	!LO:TX:t=P:problem:kreska pseudotaktowa	!	!	!	!	!
8F#\	.	.	8F#\	.	.	8aa\	.	8ff\	.	16A\	.
.	.	.	.	.	.	.	.	.	.	16B\	.
*	*	*	*	*	*	*custos:gg	*	*	*	*custos:c	*
!	!	!	!	!	!	!LO:LB:g=original	!	!	!	!LO:LB:g=original	!
=37-	=37-	=37-	=37-	=37-	=37-	=37-	=37-	=37-	=37-	=37-	=37-
8C/	.	.	8C/	.	.	8gg\	.	8ee\	.	8c\	.
8AA/	.	.	8AA/	.	.	16cc\	.	8cc\	.	16AA/	.
.	.	.	.	.	.	16dd\	.	.	.	16BB/	.
8AA/	.	.	8AA/	.	.	16ee\	.	8cc\	.	16C/	.
.	.	.	.	.	.	16cc\	.	.	.	16AA/	.
8E\	.	.	8E\	.	.	16gg\	.	8cc\	.	16E\	.
.	.	.	.	.	.	16aa\	.	.	.	16F\	.
!LO:TX:t=P:problem:kreska pseudotaktowa	!	!	!LO:TX:t=P:problem:kreska pseudotaktowa	!	!	!	!	!	!	!	!
2G\	.	.	2G\	.	.	8bb\	.	8b/	.	8G\	.
.	.	.	.	.	.	16g/	.	8b/	.	8G\	.
.	.	.	.	.	.	16a/	.	.	.	.	.
.	.	.	.	.	.	16b/	.	8b/	.	8G\	.
.	.	.	.	.	.	16g/	.	.	.	.	.
!	!	!	!	!	!	!	!	!LO:TX:t=P:problem:kreska pseudotaktowa	!	!LO:TX:t=P:problem:kreska pseudotaktowa	!
.	.	.	.	.	.	16dd\	.	8b/	.	8G\	.
!	!	!	!	!	!	!LO:TX:t=P:problem:kreska pseudotaktowa	!	!	!	!	!
.	.	.	.	.	.	16ee\	.	.	.	.	.
=38-	=38-	=38-	=38-	=38-	=38-	=38-	=38-	=38-	=38-	=38-	=38-
2Fny\	.	.	2Fny\	.	.	8ff\	.	8a/	.	8F\	.
.	.	.	.	.	.	8aa\	.	16a/	.	16F\	.
.	.	.	.	.	.	.	.	16b/	.	16G\	.
.	.	.	.	.	.	8aa\	.	16cc\	.	16A\	.
.	.	.	.	.	.	.	.	16a/	.	16F\	.
.	.	.	.	.	.	8aa\	.	16cc\	.	16A\	.
.	.	.	.	.	.	.	.	16dd\	.	16B\	.
*	*	*	*	*	*	*	*	*custos:ee	*	*	*
!	!	!	!	!	!	!	!	!LO:LB:g=original	!	!	!
2C/	.	.	2C/	.	.	8gg\	.	8ee\	.	8c\	.
.	.	.	.	.	.	16e/	.	16cc\	.	8C/	.
.	.	.	.	.	.	16fny/	.	16dd\	.	.	.
.	.	.	.	.	.	16g/	.	16ee\	.	8C/	.
.	.	.	.	.	.	16e/	.	16cc\	.	.	.
!	!	!	!	!	!	!	!	!	!	!LO:TX:t=P:problem:kreska pseudotaktowa	!
.	.	.	.	.	.	16g/	.	16ee\	.	8C/	.
!	!	!	!	!	!	!LO:TX:t=P:problem:kreska pseudotaktowa	!	!LO:TX:t=P:problem:kreska pseudotaktowa	!	!	!
.	.	.	.	.	.	16a/	.	16ff\	.	.	.
=39-	=39-	=39-	=39-	=39-	=39-	=39-	=39-	=39-	=39-	=39-	=39-
!	!	!	!	!	!	!	!	!	!LO:DY:b:t=forte	!	!
4GG/	.	.	4GG/	.	.	8b/	.	8gg\	f	8GG/	.
.	.	.	.	.	.	8b/	.	8gg\	.	8G\	.
4G\	.	.	4G\	.	.	8b/	.	8gg\	.	8G\	.
.	.	.	.	.	.	8b/	.	8gg\	.	8G\	.
4.A\	.	.	4.A\	.	.	8a/	.	8ff\	.	8A\	.
.	.	.	.	.	.	8cc\	.	8ff\	.	8A\	.
.	.	.	.	.	.	8cc\	.	8ff\	.	8A\	.
!	!	!	!	!	!	!LO:TX:t=P:problem:kreska pseudotaktowa	!	!	!	!LO:TX:t=P:problem:kreska pseudotaktowa	!
8B\	.	.	8B\	.	.	8dd\	.	8ff\	.	8B\	.
=40-	=40-	=40-	=40-	=40-	=40-	=40-	=40-	=40-	=40-	=40-	=40-
4c\	.	.	4c\	.	.	8ee\	.	8ee\	.	8c\	.
!	!	!	!	!	!	!	!LO:DY:b:t=forte.	!	!	!	!LO:DY:b:t=forte
.	.	.	.	.	.	8gg\	f	8ee\	.	8C/	f
!	!	!LO:DY:b:t=forte	!	!	!LO:DY:b:t=forte	!	!	!	!	!	!
4C/	.	f	4C/	.	f	8gg\	.	8ee\	.	8C/	.
.	.	.	.	.	.	8gg\	.	8ee\	.	8C/	.
2D/	.	.	2D/	.	.	8ff\	.	8dd\	.	8D/	.
.	.	.	.	.	.	8ff\	.	8dd\	.	8D/	.
.	.	.	.	.	.	8ff\	.	8dd\	.	8D/	.
.	.	.	.	.	.	8ff\	.	8dd\	.	8D/	.
*	*	*	*	*	*	*custos:ee	*	*	*	*custos:E	*
!	!	!	!	!	!	!LO:LB:g=original	!	!	!	!LO:LB:g=original	!
=41-	=41-	=41-	=41-	=41-	=41-	=41-	=41-	=41-	=41-	=41-	=41-
!	!	!LO:DY:b:t=piano	!	!	!LO:DY:b:t=piano	!	!LO:DY:b:t=piano	!	!	!	!LO:DY:b:t=piano
2E\	6	p	2E\	6	p	8ee\	p	8cc\	.	8E\	p
!	!	!	!	!	!	!	!	!	!LO:DY:b:t=piano.	!	!
.	.	.	.	.	.	8ee\	.	8gg\	p	8E\	.
.	.	.	.	.	.	8ee\	.	8gg\	.	8E\	.
.	.	.	.	.	.	8ee\	.	8gg\	.	8E\	.
2F\	.	.	2F\	.	.	8dd\	.	8ff\	.	8F\	.
.	.	.	.	.	.	8dd\	.	8ff\	.	8F\	.
.	.	.	.	.	.	8dd\	.	8ff\	.	8F\	.
.	.	.	.	.	.	8dd\	.	8ff\	.	8F\	.
=42-	=42-	=42-	=42-	=42-	=42-	=42-	=42-	=42-	=42-	=42-	=42-
4G\	.	.	4G\	.	.	8dd\	.	8ee\	.	8G\	.
.	.	.	.	.	.	8dd\	.	8ee\	.	8G\	.
4A\	.	.	4A\	.	.	8cc\	.	8ee\	.	8A\	.
.	.	.	.	.	.	8cc\	.	8ee\	.	8A\	.
4F\	6 5	.	4F\	6 5	.	8cc\	.	8dd\	.	8F\	.
.	.	.	.	.	.	8cc\	.	8dd\	.	8F\	.
4G\	.	.	4G\	.	.	8b/	.	8dd\	.	8G\	.
.	.	.	.	.	.	8b/	.	8dd\	.	8G\	.
=43-	=43-	=43-	=43-	=43-	=43-	=43-	=43-	=43-	=43-	=43-	=43-
1C	.	.	1C	.	.	1cc	.	1cc	.	1C	.
=-	=-	=-	=-	=-	=-	=-	=-	=-	=-	=-	=-
*M3/2	*	*	*M3/2	*	*	*M3/2	*	*M3/2	*	*M3/2	*
!LO:TX:b:B:t=Largo	!	!	!LO:TX:b:B:t=Largo	!	!	!LO:TX:b:B:t=Largo.	!	!	!	!LO:TX:b:B:t=Largo.	!
2c\	.	.	2c\	.	.	0.r	.	00.r	.	2c\	.
2A\	.	.	2A\	.	.	.	.	.	.	2A\	.
2F\	.	.	2F\	.	.	.	.	.	.	2F\	.
*custos:G	*	*	*custos:G	*	*	*	*	*	*	*	*
!LO:LB:g=original	!	!	!LO:LB:g=original	!	!	!	!	!	!	!	!
=44-	=44-	=44-	=44-	=44-	=44-	=44-	=44-	=44-	=44-	=44-	=44-
2G\	.	.	2G\	.	.	.	.	.	.	4.G\	.
.	.	.	.	.	.	.	.	.	.	8F\	.
2E\	6	.	2E\	6	.	.	.	.	.	2E\	.
2D/	6	.	2D/	6	.	.	.	.	.	2D/	.
=45-	=45-	=45-	=45-	=45-	=45-	=45-	=45-	=45-	=45-	=45-	=45-
2.C/	.	.	2.C/	.	.	2gg\	.	.	.	1C	.
.	.	.	.	.	.	2ee\	.	.	.	.	.
4D/	.	.	4D/	.	.	.	.	.	.	.	.
!LO:TX:t=P:problem:kreska pseudotaktowa	!	!	!LO:TX:t=P:problem:kreska pseudotaktowa	!	!	!	!	!	!	!	!
2E\	.	.	2E\	.	.	2cc\	.	.	.	2r	.
=46-	=46-	=46-	=46-	=46-	=46-	=46-	=46-	=46-	=46-	=46-	=46-
2F#X\	.	.	2F#X\	.	.	4.dd\	.	.	.	0.r	.
.	.	.	.	.	.	8cc\	.	.	.	.	.
2G\	.	.	2G\	.	.	2b/	.	.	.	.	.
2D/	.	.	2D/	.	.	2a/	.	.	.	.	.
*	*	*	*	*	*	*	*	*custos:gg	*	*	*
!	!	!	!	!	!	!	!	!LO:PB:g=original	!	!	!
=47-	=47-	=47-	=47-	=47-	=47-	=47-	=47-	=47-	=47-	=47-	=47-
!	!	!	!	!	!	!	!	!LO:TX:b:B:t=Largo.	!	!	!
2BB/	.	.	2BB/	.	.	1g	.	2gg\	.	.	.
2C/	.	.	2C/	.	.	.	.	2ee\	.	.	.
!LO:TX:t=P:problem:kreska pseudotaktowa	!	!	!LO:TX:t=P:problem:kreska pseudotaktowa	!	!	!	!	!	!	!	!
2AA/	.	.	2AA/	.	.	2r	.	2cc\	.	.	.
=48-	=48-	=48-	=48-	=48-	=48-	=48-	=48-	=48-	=48-	=48-	=48-
!	!	!	!	!	!	!LO:TX:t=P:problem:kreska pseudotaktowa	!	!	!	!	!
2.E\	.	.	2.E\	.	.	1.r	.	4.gg\	.	1.r	.
.	.	.	.	.	.	.	.	8ff\	.	.	.
.	.	.	.	.	.	.	.	2ee\	.	.	.
4Fny\	.	.	4Fny\	.	.	.	.	.	.	.	.
2G\	.	.	2G\	.	.	.	.	2dd\	.	.	.
=49-	=49-	=49-	=49-	=49-	=49-	=49-	=49-	=49-	=49-	=49-	=49-
2c\	.	.	2c\	.	.	4r	.	1cc	.	2c\	.
.	.	.	.	.	.	4cc\	.	.	.	.	.
2A\	.	.	2A\	.	.	4.ee\	.	.	.	2A\	.
.	.	.	.	.	.	8ee\	.	.	.	.	.
2F\	.	.	2F\	.	.	4.ff\	.	2r	.	2F\	.
.	.	.	.	.	.	8ff\	.	.	.	.	.
=50-	=50-	=50-	=50-	=50-	=50-	=50-	=50-	=50-	=50-	=50-	=50-
2c\	.	.	2c\	.	.	4gg\	.	4r	.	4.c\	.
.	.	.	.	.	.	4e/	.	4g/	.	.	.
.	.	.	.	.	.	.	.	.	.	8B\	.
2A\	6	.	2A\	6	.	4.f/	.	4.a/	.	2A\	.
.	.	.	.	.	.	8f/	.	8a/	.	.	.
!LO:TX:t=P:problem:kreska pseudotaktowa	!	!	!LO:TX:t=P:problem:kreska pseudotaktowa	!	!	!	!	!	!	!	!
2G\	.	.	2G\	.	.	4.g/	.	4.b/	.	2G\	.
.	.	.	.	.	.	8g/	.	8b/	.	.	.
*	*	*	*	*	*	*custos:a	*	*	*	*	*
!	!	!	!	!	!	!LO:LB:g=original	!	!	!	!	!
=51-	=51-	=51-	=51-	=51-	=51-	=51-	=51-	=51-	=51-	=51-	=51-
2F\	.	.	2F\	.	.	4a/	.	4cc\	.	4.F\	.
.	.	.	.	.	.	4a/	.	4cc\	.	.	.
.	.	.	.	.	.	.	.	.	.	8E\	.
2D/	.	.	2D/	.	.	4.b/	.	4.dd\	.	2D/	.
.	.	.	.	.	.	8b/	.	8dd\	.	.	.
2C/	.	.	2C/	.	.	4.cc\	.	4.ee\	.	2C/	.
!	!	!	!	!	!	!	!	!LO:TX:t=P:problem:kreska pseudotaktowa	!	!	!
.	.	.	.	.	.	8cc\	.	8ee\	.	.	.
*	*	*	*	*	*	*	*	*	*	*custos:BB-	*
!	!	!	!	!	!	!	!	!	!	!LO:LB:g=original	!
=52-	=52-	=52-	=52-	=52-	=52-	=52-	=52-	=52-	=52-	=52-	=52-
2BB-X/	.	.	2BB-X/	.	.	4dd\	.	4ff\	.	4.BB-X/	.
.	.	.	.	.	.	4dd\	.	4ff\	.	.	.
.	.	.	.	.	.	.	.	.	.	8AA/	.
2GG/	6	.	2GG/	6	.	4.ee\	.	4.gg\	.	2GG/	.
.	.	.	.	.	.	8ee\	.	8gg\	.	.	.
!	!	!	!	!	!	!LO:N:vis=4	!	!	!	!	!
2FF/	.	.	2FF/	.	.	4.ff\	.	4.aa\	.	2FFny/	.
!	!	!	!	!	!	!LO:TX:t=P:problem:kreska pseudotaktowa	!	!	!	!	!
.	.	.	.	.	.	8ff\	.	8aa\	.	.	.
=53-	=53-	=53-	=53-	=53-	=53-	=53-	=53-	=53-	=53-	=53-	=53-
2C/	.	.	2C/	.	.	2ee\	.	2gg\	.	4C/	.
.	.	.	.	.	.	.	.	.	.	4C/	.
2D/	.	.	2D/	.	.	2r	.	2r	.	4.D/	.
.	.	.	.	.	.	.	.	.	.	8D/	.
!LO:TX:t=P:problem:kreska pseudotaktowa	!	!	!LO:TX:t=P:problem:kreska pseudotaktowa	!	!	!	!	!	!	!	!
2E\	.	.	2E\	.	.	2r	.	2r	.	4.E\	.
.	.	.	.	.	.	.	.	.	.	8E\	.
=54-	=54-	=54-	=54-	=54-	=54-	=54-	=54-	=54-	=54-	=54-	=54-
2F\	.	.	2F\	.	.	4.a/	.	4r	.	4.F\	.
.	.	.	.	.	.	.	.	4cc\	.	.	.
.	.	.	.	.	.	8g/	.	.	.	8E\	.
2D/	.	.	2D/	.	.	2f/	.	4.dd\	.	2D/	.
.	.	.	.	.	.	.	.	8dd\	.	.	.
!	!	!	!	!	!	!LO:TX:t=P:problem:kreska pseudotaktowa	!	!	!	!	!
2C/	.	.	2C/	.	.	2e/	.	4.ee\	.	2C/	.
.	.	.	.	.	.	.	.	8ee\	.	.	.
=55-	=55-	=55-	=55-	=55-	=55-	=55-	=55-	=55-	=55-	=55-	=55-
2G\	.	.	2G\	.	.	4b/	.	4dd\	.	4G\	.
.	.	.	.	.	.	4b/	.	4gg\	.	4G\	.
2A\	.	.	2A\	.	.	4.cc\	.	2ee\	.	4.A\	.
.	.	.	.	.	.	8cc\	.	.	.	8A\	.
!LO:TX:t=P:problem:kreska pseudotaktowa	!	!	!LO:TX:t=P:problem:kreska pseudotaktowa	!	!	!	!	!	!	!	!
2B\	.	.	2B\	.	.	4.dd\	.	2dd\	.	4.B\	.
!	!	!	!	!	!	!	!	!	!	!LO:TX:t=P:problem:kreska pseudotaktowa	!
.	.	.	.	.	.	8dd\	.	.	.	8B\	.
=56-	=56-	=56-	=56-	=56-	=56-	=56-	=56-	=56-	=56-	=56-	=56-
2c\	.	.	2c\	.	.	1ee	.	1cc	.	2c\	.
2A\	.	.	2A\	.	.	.	.	.	.	2A\	.
!	!	!	!	!	!	!LO:TX:t=P:problem:kreska pseudotaktowa	!	!	!	!	!
2F\	.	.	2F\	.	.	2r	.	2r	.	2F\	.
*custos:G	*	*	*custos:G	*	*	*	*	*custos:dd	*	*	*
!LO:LB:g=original	!	!	!LO:LB:g=original	!	!	!	!	!LO:LB:g=original	!	!	!
=57-	=57-	=57-	=57-	=57-	=57-	=57-	=57-	=57-	=57-	=57-	=57-
2G\	.	.	2G\	.	.	4r	.	4r	.	4.G\	.
.	.	.	.	.	.	4b/	.	4dd\	.	.	.
.	.	.	.	.	.	.	.	.	.	8F\	.
2E\	.	.	2E\	.	.	4.cc\	.	4.ee\	.	2E\	.
.	.	.	.	.	.	8cc\	.	8ee\	.	.	.
!	!	!	!	!	!	!	!	!	!	!LO:TX:t=P:problem:kreska pseudotaktowa	!
2D/	.	.	2D/	.	.	4.dd\	.	4.ff\	.	2D/	.
.	.	.	.	.	.	8dd\	.	8ff\	.	.	.
=58-	=58-	=58-	=58-	=58-	=58-	=58-	=58-	=58-	=58-	=58-	=58-
2C/	.	.	2C/	.	.	4ee\	.	4gg\	.	4.C/	.
.	.	.	.	.	.	4e/	.	4g/	.	.	.
.	.	.	.	.	.	.	.	.	.	8BBny/	.
*	*	*	*	*	*	*custos:f#	*	*	*	*	*
!	!	!	!	!	!	!LO:LB:g=original	!	!	!	!	!
2AA/	6 #	.	2AA/	6 #	.	4.f#X/	.	4.a/	.	2AA/	.
.	.	.	.	.	.	8f#/	.	8a/	.	.	.
2GG/	.	.	2GG/	.	.	4.g/	.	4.b/	.	2GG/	.
!	!	!	!	!	!	!LO:TX:t=P:problem:kreska pseudotaktowa	!	!LO:TX:t=P:problem:kreska pseudotaktowa	!	!	!
.	.	.	.	.	.	8g/	.	8b/	.	.	.
=59-	=59-	=59-	=59-	=59-	=59-	=59-	=59-	=59-	=59-	=59-	=59-
2D/	#	.	2D/	#	.	2f#X/	.	4a/	.	2D/	.
.	.	.	.	.	.	.	.	4dd\	.	.	.
1E	.	.	1E	.	.	2.g/	.	2b/	.	2.E\	.
.	.	.	.	.	.	.	.	2g/	.	.	.
.	.	.	.	.	.	4g/	.	.	.	4E\	.
=60-	=60-	=60-	=60-	=60-	=60-	=60-	=60-	=60-	=60-	=60-	=60-
1.D	4#r	.	1.D	4#r	.	1g	.	4.dd\	.	1.D	.
.	.	.	.	.	.	.	.	8cc\	.	.	.
.	.	.	.	.	.	.	.	2b/	.	.	.
.	.	.	.	.	.	2f#X/	.	2a/	.	.	.
*	*	*	*	*	*	*	*	*	*	*custos:GG	*
!	!	!	!	!	!	!	!	!	!	!LO:PB:g=original	!
=61-	=61-	=61-	=61-	=61-	=61-	=61-	=61-	=61-	=61-	=61-	=61-
4GG/	.	.	4GG/	.	.	1g	.	1g	.	4GG/	.
4BBny/	.	.	4BBny/	.	.	.	.	.	.	4BB/	.
2C/	.	.	2C/	.	.	.	.	.	.	4.C/	.
.	.	.	.	.	.	.	.	.	.	8C/	.
2D/	.	.	2D/	.	.	2r	.	2r	.	4.D/	.
.	.	.	.	.	.	.	.	.	.	8D/	.
=62-	=62-	=62-	=62-	=62-	=62-	=62-	=62-	=62-	=62-	=62-	=62-
!	!	!	!	!	!	!LO:TX:t=P:problem:kreska pseudotaktowa	!	!	!	!	!
1E	.	.	1E	.	.	1.r	.	1.r	.	4E\	.
.	.	.	.	.	.	.	.	.	.	4G\	.
.	.	.	.	.	.	.	.	.	.	2E\	.
!LO:TX:t=P:problem:kreska pseudotaktowa	!	!	!LO:TX:t=P:problem:kreska pseudotaktowa	!	!	!	!	!	!	!	!
2C/	.	.	2C/	.	.	.	.	.	.	2C/	.
=63-	=63-	=63-	=63-	=63-	=63-	=63-	=63-	=63-	=63-	=63-	=63-
2D/	#	.	2D/	#	.	4r	.	4r	.	4.D/	.
.	.	.	.	.	.	4f#X/	.	4a/	.	.	.
.	.	.	.	.	.	.	.	.	.	8C/	.
2BB/	.	.	2BB/	.	.	4.g/	.	4.b/	.	2BB/	.
.	.	.	.	.	.	8g/	.	8b/	.	.	.
2AA/	.	.	2AA/	.	.	4.a/	.	4.cc\	.	2AA/	.
.	.	.	.	.	.	8a/	.	8cc\	.	.	.
=64-	=64-	=64-	=64-	=64-	=64-	=64-	=64-	=64-	=64-	=64-	=64-
1GG	.	.	1GG	.	.	2b/	.	2dd\	.	2GG/	.
.	.	.	.	.	.	2r	.	2b\	.	2r	.
!	!	!	!	!	!	!LO:TX:t=P:problem:kreska pseudotaktowa	!	!	!	!	!
2G\	.	.	2G\	.	.	2r	.	2g/	.	2r	.
=65-	=65-	=65-	=65-	=65-	=65-	=65-	=65-	=65-	=65-	=65-	=65-
1E	6	.	1E	6	.	4.ee\	.	4.gg\	.	1.r	.
.	.	.	.	.	.	8dd\	.	8ff\	.	.	.
.	.	.	.	.	.	2cc\	.	2ee\	.	.	.
2G\	.	.	2G\	.	.	2b/	.	2dd\	.	.	.
*	*	*	*	*	*	*	*	*custos:cc	*	*	*
!	!	!	!	!	!	!	!	!LO:LB:g=original	!	!	!
=66-	=66-	=66-	=66-	=66-	=66-	=66-	=66-	=66-	=66-	=66-	=66-
2c\	.	.	2c\	.	.	4cc\	.	4cc\	.	4.c\	.
.	.	.	.	.	.	4e/	.	4g/	.	.	.
.	.	.	.	.	.	.	.	.	.	8B\	.
2A\	.	.	2A\	.	.	4.fny/	.	4.a/	.	2A\	.
.	.	.	.	.	.	8f/	.	8a/	.	.	.
!LO:TX:t=P:problem:kreska pseudotaktowa	!	!	!LO:TX:t=P:problem:kreska pseudotaktowa	!	!	!	!	!	!	!	!
2G\	.	.	2G\	.	.	4.g/	.	4.b/	.	2G\	.
!	!	!	!	!	!	!LO:TX:t=P:problem:kreska pseudotaktowa	!	!LO:TX:t=P:problem:kreska pseudotaktowa	!	!	!
.	.	.	.	.	.	8g/	.	8b/	.	.	.
*	*	*	*	*	*	*custos:a	*	*	*	*	*
!	!	!	!	!	!	!LO:LB:g=original	!	!	!	!	!
=67-	=67-	=67-	=67-	=67-	=67-	=67-	=67-	=67-	=67-	=67-	=67-
2F\	.	.	2F\	.	.	4a/	.	4cc\	.	4.F\	.
.	.	.	.	.	.	4a/	.	4cc\	.	.	.
.	.	.	.	.	.	.	.	.	.	8E\	.
2D/	6	.	2D/	6	.	4.b/	.	4.dd\	.	2D/	.
.	.	.	.	.	.	8b/	.	8dd\	.	.	.
!	!	!	!	!	!	!	!	!	!	!LO:TX:t=P:problem:kreska pseudotaktowa	!
2C/	.	.	2C/	.	.	4.cc\	.	4.ee\	.	2C/	.
.	.	.	.	.	.	8cc\	.	8ee\	.	.	.
=68-	=68-	=68-	=68-	=68-	=68-	=68-	=68-	=68-	=68-	=68-	=68-
2GG/	.	.	2GG/	.	.	4b/	.	2dd\	.	4G\	.
.	.	.	.	.	.	4b/	.	.	.	4GG/	.
2AA/	.	.	2AA/	.	.	4.cc\	.	2r	.	4.AA/	.
.	.	.	.	.	.	8cc\	.	.	.	8AA/	.
!	!	!	!	!	!	!	!	!LO:TX:t=P:problem:kreska pseudotaktowa	!	!	!
2BB/	.	.	2BB/	.	.	4.dd\	.	2r	.	4.BB/	.
!	!	!	!	!	!	!LO:TX:t=P:problem:kreska pseudotaktowa	!	!	!	!	!
.	.	.	.	.	.	8dd\	.	.	.	8BB/	.
=69-	=69-	=69-	=69-	=69-	=69-	=69-	=69-	=69-	=69-	=69-	=69-
2C/	.	.	2C/	.	.	4.cc\	.	4r	.	4C/	.
.	.	.	.	.	.	.	.	4ee\	.	4C/	.
.	.	.	.	.	.	8b/	.	.	.	.	.
2D/	.	.	2D/	.	.	2a/	.	4.ff\	.	4.D/	.
.	.	.	.	.	.	.	.	8ff\	.	8D/	.
!LO:TX:t=P:problem:kreska pseudotaktowa	!	!	!LO:TX:t=P:problem:kreska pseudotaktowa	!	!	!	!	!	!	!	!
2E\	.	.	2E\	.	.	2g/	.	4.gg\	.	4.E\	.
.	.	.	.	.	.	.	.	8gg\	.	8E\	.
*	*	*	*	*	*	*	*	*	*	*custos:F	*
!	!	!	!	!	!	!	!	!	!	!LO:LB:g=original	!
=70-	=70-	=70-	=70-	=70-	=70-	=70-	=70-	=70-	=70-	=70-	=70-
2F\	.	.	2F\	.	.	4f/	.	4.aa\	.	4.F\	.
.	.	.	.	.	.	4a/	.	.	.	.	.
.	.	.	.	.	.	.	.	8gg\	.	8E\	.
2D/	6	.	2D/	6	.	4.b/	.	2ff\	.	2D/	.
.	.	.	.	.	.	8b/	.	.	.	.	.
2C/	.	.	2C/	.	.	4.cc\	.	2ee\	.	2C/	.
.	.	.	.	.	.	8cc\	.	.	.	.	.
=71-	=71-	=71-	=71-	=71-	=71-	=71-	=71-	=71-	=71-	=71-	=71-
2G\	.	.	2G\	.	.	2b/	.	4dd\	.	2G\	.
.	.	.	.	.	.	.	.	4gg\	.	.	.
*col	*	*	*col	*	*	*	*	*	*	*	*
1A	.	.	1A	.	.	2.cc\	.	2ee\	.	2.A\	.
.	.	.	.	.	.	.	.	2cc\	.	.	.
.	.	.	.	.	.	4cc\	.	.	.	4A\	.
*Xcol	*	*	*Xcol	*	*	*	*	*	*	*	*
=72-	=72-	=72-	=72-	=72-	=72-	=72-	=72-	=72-	=72-	=72-	=72-
1.G	4:5	.	1.G	4:5	.	1cc	.	4.gg\	.	1.G	.
.	.	.	.	.	.	.	.	8ff\	.	.	.
.	.	.	.	.	.	.	.	2ee\	.	.	.
.	.	.	.	.	.	2b/	.	2dd\	.	.	.
=73-	=73-	=73-	=73-	=73-	=73-	=73-	=73-	=73-	=73-	=73-	=73-
1.C	.	.	1.C	.	.	1.cc	.	1.cc	.	1.C	.
*custos:E	*	*	*custos:E	*	*	*	*	*	*	*	*
!LO:LB:g=original	!	!	!LO:LB:g=original	!	!	!	!	!	!	!	!
=74-	=74-	=74-	=74-	=74-	=74-	=74-	=74-	=74-	=74-	=74-	=74-
2E\	.	.	2E\	.	.	0.r	.	0.r	.	2E\	.
2C/	.	.	2C/	.	.	.	.	.	.	2C/	.
2AA/	.	.	2AA/	.	.	.	.	.	.	2AA/	.
=75-	=75-	=75-	=75-	=75-	=75-	=75-	=75-	=75-	=75-	=75-	=75-
2D/	.	.	2D/	.	.	.	.	.	.	4.D/	.
.	.	.	.	.	.	.	.	.	.	8C/	.
2BB/	6	.	2BB/	6	.	.	.	.	.	2BB/	.
!	!	!	!	!	!	!	!	!	!	!LO:TX:t=P:problem:kreska pseudotaktowa	!
2AA/	6 #	.	2AA/	6 #	.	.	.	.	.	2AA/	.
*	*	*	*	*	*	*	*	*custos:dd	*	*	*
!	!	!	!	!	!	!	!	!LO:LB:g=original	!	!	!
=76-	=76-	=76-	=76-	=76-	=76-	=76-	=76-	=76-	=76-	=76-	=76-
2GG/	.	.	2GG/	.	.	4.b/	.	4.dd\	.	4GG/	.
.	.	.	.	.	.	.	.	.	.	4GG/	.
.	.	.	.	.	.	8a/	.	8cc\	.	.	.
2BB/	6	.	2BB/	6	.	2g/	.	2b/	.	4.BB/	.
.	.	.	.	.	.	.	.	.	.	8BB/	.
!LO:TX:t=P:problem:kreska pseudotaktowa	!	!	!LO:TX:t=P:problem:kreska pseudotaktowa	!	!	!	!	!	!	!	!
2D/	#	.	2D/	#	.	2f#X/	.	2a/	.	4.D/	.
!	!	!	!	!	!	!	!	!	!	!LO:TX:t=P:problem:kreska pseudotaktowa	!
.	.	.	.	.	.	.	.	.	.	8D/	.
*	*	*	*	*	*	*custos:g	*	*	*	*	*
!	!	!	!	!	!	!LO:LB:g=original	!	!	!	!	!
=77-	=77-	=77-	=77-	=77-	=77-	=77-	=77-	=77-	=77-	=77-	=77-
2G\	.	.	2G\	.	.	4g/	.	4g/	.	4.G\	.
.	.	.	.	.	.	4b/	.	4g/	.	.	.
.	.	.	.	.	.	.	.	.	.	8F\	.
2E\	5	.	2E\	5	.	4.g/	.	4.b/	.	2E\	.
.	.	.	.	.	.	8g/	.	8b/	.	.	.
2D/	6	.	2D/	6	.	4.b/	.	4.dd\	.	2D/	.
!	!	!	!	!	!	!LO:TX:t=P:problem:kreska pseudotaktowa	!	!LO:TX:t=P:problem:kreska pseudotaktowa	!	!	!
.	.	.	.	.	.	8b/	.	8dd\	.	.	.
=78-	=78-	=78-	=78-	=78-	=78-	=78-	=78-	=78-	=78-	=78-	=78-
2C/	.	.	2C/	.	.	4.ee\	.	4.gg\	.	4C/	.
.	.	.	.	.	.	.	.	.	.	4C/	.
.	.	.	.	.	.	8dd\	.	8ff\	.	.	.
2E\	.	.	2E\	.	.	2cc\	.	2ee\	.	4.E\	.
.	.	.	.	.	.	.	.	.	.	8E\	.
!LO:TX:t=P:problem:kreska pseudotaktowa	!	!	!LO:TX:t=P:problem:kreska pseudotaktowa	!	!	!	!	!	!	!	!
2G\	.	.	2G\	.	.	2b/	.	2dd\	.	4.G\	.
!	!	!	!	!	!	!	!	!	!	!LO:TX:t=P:problem:kreska pseudotaktowa	!
.	.	.	.	.	.	.	.	.	.	8G\	.
=79-	=79-	=79-	=79-	=79-	=79-	=79-	=79-	=79-	=79-	=79-	=79-
2c\	.	.	2c\	.	.	4ee\	.	4cc\	.	4.c\	.
.	.	.	.	.	.	4ee\	.	4cc\	.	.	.
.	.	.	.	.	.	.	.	.	.	8B\	.
2A\	5	.	2A\	5	.	4.cc\	.	4.ee\	.	2A\	.
.	.	.	.	.	.	8cc\	.	8ee\	.	.	.
2G\	6	.	2G\	6	.	4.ee\	.	4.gg\	.	2G\	.
.	.	.	.	.	.	8ee\	.	8gg\	.	.	.
*	*	*	*	*	*	*	*	*	*	*custos:F	*
!	!	!	!	!	!	!	!	!	!	!LO:LB:g=original	!
=80-	=80-	=80-	=80-	=80-	=80-	=80-	=80-	=80-	=80-	=80-	=80-
1F	.	.	1F	.	.	4.aa\	.	4.ccc\	.	1F	.
.	.	.	.	.	.	8gg\	.	8bb\	.	.	.
.	.	.	.	.	.	2ff\	.	2aa\	.	.	.
!LO:TX:t=P:problem:kreska pseudotaktowa	!	!	!LO:TX:t=P:problem:kreska pseudotaktowa	!	!	!	!	!	!	!	!
2C/	.	.	2C/	.	.	2ee\	.	2gg\	.	2r	.
=81-	=81-	=81-	=81-	=81-	=81-	=81-	=81-	=81-	=81-	=81-	=81-
2F\	.	.	2F\	.	.	1ff	.	1ff	.	4.F\	.
.	.	.	.	.	.	.	.	.	.	8E\	.
2D/	6	.	2D/	6	.	.	.	.	.	2D/	.
!	!	!	!	!	!	!	!	!LO:TX:t=P:problem:kreska pseudotaktowa	!	!	!
2C/	.	.	2C/	.	.	2r	.	2r	.	2C/	.
=82-	=82-	=82-	=82-	=82-	=82-	=82-	=82-	=82-	=82-	=82-	=82-
2G\	.	.	2G\	.	.	1.r	.	4.gg\	.	4G\	.
.	.	.	.	.	.	.	.	.	.	4G\	.
.	.	.	.	.	.	.	.	8ff\	.	.	.
2A\	.	.	2A\	.	.	.	.	2ee\	.	4.A\	.
.	.	.	.	.	.	.	.	.	.	8A\	.
2B\	.	.	2B\	.	.	.	.	2dd\	.	4.B\	.
!	!	!	!	!	!	!	!	!	!	!LO:TX:t=P:problem:kreska pseudotaktowa	!
.	.	.	.	.	.	.	.	.	.	8B\	.
=83-	=83-	=83-	=83-	=83-	=83-	=83-	=83-	=83-	=83-	=83-	=83-
4c\	.	.	4c\	.	.	4.ccc\	.	4cc\	.	4c\	.
4C/	.	.	4C/	.	.	.	.	4e/	.	4C/	.
.	.	.	.	.	.	8bb\	.	.	.	.	.
2D/	.	.	2D/	.	.	2aa\	.	4.f/	.	4.D/	.
.	.	.	.	.	.	.	.	8f/	.	8D/	.
2E\	.	.	2E\	.	.	2gg\	.	4.g/	.	4.E\	.
.	.	.	.	.	.	.	.	8g/	.	8E\	.
*	*	*	*	*	*	*	*	*custos:a	*	*	*
!	!	!	!	!	!	!	!	!LO:LB:g=original	!	!	!
=84-	=84-	=84-	=84-	=84-	=84-	=84-	=84-	=84-	=84-	=84-	=84-
4F\	.	.	4F\	.	.	4.ff\	.	4a/	.	4F\	.
4FF/	.	.	4FF/	.	.	.	.	4a/	.	4FF/	.
.	.	.	.	.	.	8ee\	.	.	.	.	.
2GG/	.	.	2GG/	.	.	2dd\	.	4.b-X/	.	4.GG/	.
.	.	.	.	.	.	.	.	8b-/	.	8GG/	.
2AA/	.	.	2AA/	.	.	2cc\	.	4.cc\	.	4.AA/	.
!	!	!	!	!	!	!	!	!	!	!LO:TX:t=P:problem:kreska pseudotaktowa	!
.	.	.	.	.	.	.	.	8cc\	.	8AA/	.
=85-	=85-	=85-	=85-	=85-	=85-	=85-	=85-	=85-	=85-	=85-	=85-
2BB-X/	.	.	2BB-X/	.	.	4b-X/	.	2dd\	.	4.BB-X/	.
.	.	.	.	.	.	4dd\	.	.	.	.	.
.	.	.	.	.	.	.	.	.	.	8AA/	.
2GG/	.	.	2GG/	.	.	4.ee\	.	2r	.	2GG/	.
.	.	.	.	.	.	8ee\	.	.	.	.	.
!	!	!	!	!	!	!	!	!LO:TX:t=P:problem:kreska pseudotaktowa	!	!	!
2FF/	.	.	2FF/	.	.	4.ff\	.	2r	.	2FF/	.
.	.	.	.	.	.	8ff\	.	.	.	.	.
*	*	*	*	*	*	*custos:ee	*	*	*	*	*
!	!	!	!	!	!	!LO:LB:g=original	!	!	!	!	!
=86-	=86-	=86-	=86-	=86-	=86-	=86-	=86-	=86-	=86-	=86-	=86-
2C/	.	.	2C/	.	.	2ee\	.	2ccc\	.	2C/	.
1D	.	.	1D	.	.	2.ff\	.	2aa\	.	2.D/	.
.	.	.	.	.	.	.	.	2ff\	.	.	.
.	.	.	.	.	.	4ff\	.	.	.	4D/	.
=87-	=87-	=87-	=87-	=87-	=87-	=87-	=87-	=87-	=87-	=87-	=87-
1.C	.	.	1.C	.	.	1ff	.	4.ccc\	.	1.C	.
.	.	.	.	.	.	.	.	8bb\	.	.	.
.	.	.	.	.	.	.	.	2aa\	.	.	.
.	.	.	.	.	.	2ee\	.	2gg\	.	.	.
=88-	=88-	=88-	=88-	=88-	=88-	=88-	=88-	=88-	=88-	=88-	=88-
1.FF	.	.	1.FF	.	.	1.ff	.	1.ff	.	1.FF	.
*custos:D	*	*	*custos:D	*	*	*	*	*	*	*custos:G	*
!LO:LB:g=original	!	!	!LO:LB:g=original	!	!	!	!	!	!	!LO:LB:g=original	!
=89-	=89-	=89-	=89-	=89-	=89-	=89-	=89-	=89-	=89-	=89-	=89-
1D	.	.	1D	.	.	4.ff\	.	4.aa\	.	1.r	.
.	.	.	.	.	.	8ee\	.	8gg\	.	.	.
.	.	.	.	.	.	2dd\	.	2ff\	.	.	.
2E\	6	.	2E\	6	.	2cc\	.	2ee\	.	.	.
=90-	=90-	=90-	=90-	=90-	=90-	=90-	=90-	=90-	=90-	=90-	=90-
2G\	.	.	2G\	.	.	4bny/	.	4dd\	.	4.G\	.
.	.	.	.	.	.	4b/	.	4dd\	.	.	.
.	.	.	.	.	.	.	.	.	.	8F\	.
2E\	6	.	2E\	6	.	4.cc\	.	4.ee\	.	2E\	.
.	.	.	.	.	.	8cc\	.	8ee\	.	.	.
2D/	.	.	2D/	.	.	4.dd\	.	4.ff\	.	2D/	.
!	!	!	!	!	!	!	!	!LO:TX:t=P:problem:kreska pseudotaktowa	!	!	!
.	.	.	.	.	.	8dd\	.	8ff\	.	.	.
=91-	=91-	=91-	=91-	=91-	=91-	=91-	=91-	=91-	=91-	=91-	=91-
2C/	.	.	2C/	.	.	4ee\	.	4gg\	.	4.C/	.
.	.	.	.	.	.	4e/	.	4g/	.	.	.
.	.	.	.	.	.	.	.	.	.	8BBny/	.
2AA/	6 #	.	2AA/	6 #	.	4.f#X/	.	4.a/	.	2AA/	.
.	.	.	.	.	.	8f#/	.	8a/	.	.	.
2GG/	.	.	2GG/	.	.	4.g/	.	4.bny/	.	2GG/	.
.	.	.	.	.	.	8g/	.	8b/	.	.	.
=92-	=92-	=92-	=92-	=92-	=92-	=92-	=92-	=92-	=92-	=92-	=92-
2D/	#	.	2D/	#	.	2f#X/	.	2a/	.	4D/	.
.	.	.	.	.	.	.	.	.	.	4D/	.
2E\	.	.	2E\	.	.	2r	.	2r	.	4.E\	.
.	.	.	.	.	.	.	.	.	.	8E\	.
2F#X\	.	.	2F#X\	.	.	2r	.	2r	.	4.F#X\	.
!	!	!	!	!	!	!	!	!	!	!LO:TX:t=P:problem:kreska pseudotaktowa	!
.	.	.	.	.	.	.	.	.	.	8F#\	.
*	*	*	*	*	*	*	*	*custos:gg	*	*	*
!	!	!	!	!	!	!	!	!LO:LB:g=original	!	!	!
=93-	=93-	=93-	=93-	=93-	=93-	=93-	=93-	=93-	=93-	=93-	=93-
4G\	.	.	4G\	.	.	1.r	.	4.gg\	.	4G\	.
4GG/	.	.	4GG/	.	.	.	.	.	.	4GG/	.
.	.	.	.	.	.	.	.	8ff\	.	.	.
2AA/	.	.	2AA/	.	.	.	.	2ee\	.	4.AA/	.
.	.	.	.	.	.	.	.	.	.	8AA/	.
!LO:TX:t=P:problem:kreska pseudotaktowa	!	!	!LO:TX:t=P:problem:kreska pseudotaktowa	!	!	!	!	!	!	!	!
2BBny/	.	.	2BBny/	.	.	.	.	2dd\	.	4.BB/	.
.	.	.	.	.	.	.	.	.	.	8BB/	.
=94-	=94-	=94-	=94-	=94-	=94-	=94-	=94-	=94-	=94-	=94-	=94-
2C/	.	.	2C/	.	.	4.ccc\	.	2cc\	.	4C/	.
.	.	.	.	.	.	.	.	.	.	4C/	.
.	.	.	.	.	.	8bb\	.	.	.	.	.
2D/	.	.	2D/	.	.	2aa\	.	2r	.	4.D/	.
.	.	.	.	.	.	.	.	.	.	8D/	.
2E\	.	.	2E\	.	.	2gg\	.	2r	.	4.E\	.
.	.	.	.	.	.	.	.	.	.	8E\	.
=95-	=95-	=95-	=95-	=95-	=95-	=95-	=95-	=95-	=95-	=95-	=95-
2Fny\	.	.	2Fny\	.	.	4ff\	.	1.r	.	4.Fny\	.
.	.	.	.	.	.	4a/	.	.	.	.	.
.	.	.	.	.	.	.	.	.	.	8E\	.
2D/	6	.	2D/	6	.	4.b/	.	.	.	2D/	.
.	.	.	.	.	.	8b/	.	.	.	.	.
2C/	.	.	2C/	.	.	4.cc\	.	.	.	2C/	.
.	.	.	.	.	.	8cc\	.	.	.	.	.
*	*	*	*	*	*	*custos:b	*	*	*	*	*
!	!	!	!	!	!	!LO:LB:g=original	!	!	!	!	!
=96-	=96-	=96-	=96-	=96-	=96-	=96-	=96-	=96-	=96-	=96-	=96-
2G\	.	.	2G\	.	.	2b/	.	2gg\	.	2G\	.
!	!	!	!	!	!	!LO:TX:b:B:t=Adagio.	!	!	!	!	!
*col	*	*	*col	*	*	*	*	*	*	*	*
1A	.	.	1A	.	.	2.cc\	.	2ee\	.	2.A\	.
.	.	.	.	.	.	.	.	2cc\	.	.	.
.	.	.	.	.	.	4cc\	.	.	.	4A\	.
*Xcol	*	*	*Xcol	*	*	*	*	*	*	*	*
=97-	=97-	=97-	=97-	=97-	=97-	=97-	=97-	=97-	=97-	=97-	=97-
1.G	4:3	.	1.G	4:3	.	1cc	.	4.gg\	.	1.G	.
.	.	.	.	.	.	.	.	8ff\	.	.	.
.	.	.	.	.	.	.	.	2ee\	.	.	.
.	.	.	.	.	.	2b/	.	2dd\	.	.	.
*	*	*	*	*	*	*	*	*	*	*custos:C	*
!	!	!	!	!	!	!	!	!	!	!LO:LB:g=original	!
=98-	=98-	=98-	=98-	=98-	=98-	=98-	=98-	=98-	=98-	=98-	=98-
1.C	.	.	1.C	.	.	1.cc	.	1.cc	.	1.C	.
=-	=-	=-	=-	=-	=-	=-	=-	=-	=-	=-	=-
*M2/2	*	*	*M2/2	*	*	*M2/2	*	*M2/2	*	*M2/2	*
*met(C|)	*	*	*met(C|)	*	*	*met(C|)	*	*met(C|)	*	*met(C|)	*
!LO:TX:b:B:t=Adagio.	!	!	!LO:TX:b:B:t=Adagio.	!	!	!	!	!LO:TX:b:B:t=adagio.	!	!LO:TX:b:B:t=adagio.	!
4r	.	.	4r	.	.	4r	.	4r	.	4r	.
4c\	6	.	4c\	6	.	4ee\	.	4aa\	.	4c\	.
4.c\	5 2	.	4.c\	5 2	.	4.dd\	.	4gg\	.	4.c\	.
.	.	.	.	.	.	.	.	4ff\	.	.	.
!LO:TX:t=P:problem:kreska pseudotaktowa	!	!	!LO:TX:t=P:problem:kreska pseudotaktowa	!	!	!	!	!	!	!	!
8B\	4	.	8B\	4	.	8dd\	.	.	.	8B\	.
=99-	=99-	=99-	=99-	=99-	=99-	=99-	=99-	=99-	=99-	=99-	=99-
4c\	.	.	4c\	.	.	4cc\	.	4ee\	.	4c\	.
8r	.	.	8r	.	.	8r	.	8r	.	8r	.
8A\	6	.	8A\	6	.	8cc\	.	8ff\	.	8A\	.
4.A\	5:4 2	.	4.A\	5:4 2	.	4.b/	.	4ee\	.	4.A\	.
!	!	!	!	!	!	!	!	!LO:TX:t=P:problem:kreska pseudotaktowa	!	!	!
.	.	.	.	.	.	.	.	4dd\	.	.	.
!LO:TX:t=P:problem:kreska pseudotaktowa	!	!	!LO:TX:t=P:problem:kreska pseudotaktowa	!	!	!	!	!	!	!LO:TX:t=P:problem:kreska pseudotaktowa	!
8G#X\	.	.	8G#X\	.	.	8b/	.	.	.	8G#X\	.
=100-	=100-	=100-	=100-	=100-	=100-	=100-	=100-	=100-	=100-	=100-	=100-
4A\	.	.	4A\	.	.	4a/	.	4cc\	.	4A\	.
8r	.	.	8r	.	.	8r	.	8r	.	8r	.
8F\	6	.	8F\	6	.	8a/	.	8dd\	.	8F\	.
*custos:F	*	*	*custos:F	*	*	*	*	*	*	*	*
!LO:LB:g=original	!	!	!LO:LB:g=original	!	!	!	!	!	!	!	!
4.F\	5 2	.	4.F\	5 2	.	4.g/	.	4cc\	.	4.F\	.
.	.	.	.	.	.	.	.	4b-X/	.	.	.
!LO:TX:t=P:problem:kreska pseudotaktowa	!	!	!LO:TX:t=P:problem:kreska pseudotaktowa	!	!	!LO:TX:t=P:problem:kreska pseudotaktowa	!	!	!	!LO:TX:t=P:problem:kreska pseudotaktowa	!
8E\	.	.	8E\	.	.	8g/	.	.	.	8E\	.
=101-	=101-	=101-	=101-	=101-	=101-	=101-	=101-	=101-	=101-	=101-	=101-
4.F\	.	.	4.F\	.	.	4.fny/	.	4.a/	.	4.F\	.
8A\	6	.	8A\	6	.	8ff\	.	8cc\	.	8A\	.
8Gny\	.	.	8Gny\	.	.	8b/	.	8gg\	.	8Gny\	.
8A\	.	.	8A\	.	.	8cc\	.	8ee\	.	8A\	.
8F\	.	.	8F\	.	.	8a/	.	8ff\	.	8F\	.
!LO:TX:t=P:problem:kreska pseudotaktowa	!	!	!LO:TX:t=P:problem:kreska pseudotaktowa	!	!	!	!	!	!	!	!
8G\	.	.	8G\	.	.	8b/	.	8dd\	.	8G\	.
*	*	*	*	*	*	*	*	*custos:ee	*	*	*
!	!	!	!	!	!	!	!	!LO:LB:g=original	!	!	!
=102-	=102-	=102-	=102-	=102-	=102-	=102-	=102-	=102-	=102-	=102-	=102-
8E\	.	.	8E\	.	.	8g/	.	8ee\	.	8E\	.
8A\	.	.	8A\	.	.	8a/	.	8cc\	.	8A\	.
8G\	.	.	8G\	.	.	8b/	.	8gg\	.	8G\	.
8F\	.	.	8F\	.	.	8a/	.	8aa\	.	8F\	.
2G\	.	.	2G\	.	.	4b/	.	4gg\	.	4G\	.
!	!	!	!	!	!	!LO:TX:t=P:problem:kreska pseudotaktowa	!	!	!	!LO:TX:t=P:problem:kreska pseudotaktowa	!
.	.	.	.	.	.	4r	.	8r	.	4r	.
!	!	!	!	!	!	!	!	!LO:TX:t=P:problem:kreska pseudotaktowa	!	!	!
.	.	.	.	.	.	.	.	8dd\	.	.	.
=103-	=103-	=103-	=103-	=103-	=103-	=103-	=103-	=103-	=103-	=103-	=103-
2G\	.	.	2G\	.	.	8r	.	8dd\	.	4r	.
.	.	.	.	.	.	8dd\	.	8bny/	.	.	.
.	.	.	.	.	.	8dd\	.	8b/	.	8r	.
.	.	.	.	.	.	8b/	.	8g/	.	8G\	.
4E\	.	.	4E\	.	.	8b/	.	8g/	.	8G\	.
.	.	.	.	.	.	8g/	.	8gg\	.	8E\	.
!LO:TX:t=P:problem:kreska pseudotaktowa	!	!	!LO:TX:t=P:problem:kreska pseudotaktowa	!	!	!	!	!	!	!	!
4C/	.	.	4C/	.	.	8g/	.	8gg\	.	8E\	.
!	!	!	!	!	!	!	!	!LO:TX:t=P:problem:kreska pseudotaktowa	!	!LO:TX:t=P:problem:kreska pseudotaktowa	!
.	.	.	.	.	.	8gg\	.	8ee\	.	8C/	.
*	*	*	*	*	*	*custos:gg	*	*	*	*	*
!	!	!	!	!	!	!LO:LB:g=original	!	!	!	!	!
=104-	=104-	=104-	=104-	=104-	=104-	=104-	=104-	=104-	=104-	=104-	=104-
4c\	.	.	4c\	.	.	8gg\	.	8ee\	.	8C/	.
.	.	.	.	.	.	8ee\	.	8cc\	.	8c\	.
4A\	.	.	4A\	.	.	8ee\	.	8cc\	.	8c\	.
.	.	.	.	.	.	8cc\	.	8ccc\	.	8A\	.
*	*	*	*	*	*	*	*	*	*	*custos:A	*
!	!	!	!	!	!	!	!	!	!	!LO:LB:g=original	!
2F\	.	.	2F\	.	.	8cc\	.	8ccc\	.	8A\	.
.	.	.	.	.	.	8ccc\	.	8aa\	.	8F\	.
.	.	.	.	.	.	8ccc\	.	8aa\	.	4F\	.
!	!	!	!	!	!	!	!	!LO:TX:t=P:problem:kreska pseudotaktowa	!	!	!
.	.	.	.	.	.	8aa\	.	8ff\	.	.	.
=105-	=105-	=105-	=105-	=105-	=105-	=105-	=105-	=105-	=105-	=105-	=105-
2F\	.	.	2F\	.	.	8aa\	.	4ff\	.	2r	.
.	.	.	.	.	.	8ff\	.	.	.	.	.
.	.	.	.	.	.	4ff\	.	4r	.	.	.
4c\	.	.	4c\	.	.	8r	.	8r	.	8r	.
.	.	.	.	.	.	4e/	.	4g/	.	8c\	.
8B\	.	.	8B\	.	.	.	.	.	.	8B\	.
!	!	!	!	!	!	!LO:TX:t=P:problem:kreska pseudotaktowa	!	!LO:TX:t=P:problem:kreska pseudotaktowa	!	!	!
8A\	6	.	8A\	6	.	8f/	.	8a/	.	8A\	.
=106-	=106-	=106-	=106-	=106-	=106-	=106-	=106-	=106-	=106-	=106-	=106-
8G\	.	.	8G\	.	.	8g/	.	8b/	.	8G\	.
8F\	.	.	8F\	.	.	4a/	.	4cc\	.	8F\	.
8E\	6	.	8E\	6	.	.	.	.	.	8E\	.
8D/	6	.	8D/	6	.	8b/	.	8dd\	.	8D/	.
8C/	.	.	8C/	.	.	8cc\	.	8ee\	.	8C/	.
8F\	.	.	8F\	.	.	4a/	.	4cc\	.	8F\	.
8E\	.	.	8E\	.	.	.	.	.	.	8E\	.
!LO:TX:t=P:problem:kreska pseudotaktowa	!	!	!LO:TX:t=P:problem:kreska pseudotaktowa	!	!	!LO:TX:t=P:problem:kreska pseudotaktowa	!	!LO:TX:t=P:problem:kreska pseudotaktowa	!	!	!
8D/	.	.	8D/	.	.	8b/	.	8dd\	.	8D/	.
=107-	=107-	=107-	=107-	=107-	=107-	=107-	=107-	=107-	=107-	=107-	=107-
8C/	.	.	8C/	.	.	8cc\	.	8ee\	.	8C/	.
8BB-X/	.	.	8BB-X/	.	.	4dd\	.	4ff\	.	8BB-X/	.
8AA/	6	.	8AA/	6	.	.	.	.	.	8AA/	.
8GG/	6	.	8GG/	6	.	8ee\	.	8gg\	.	8GG/	.
2FF/	5:6	.	2FF/	5:6	.	8ff\	.	8aa\	.	2FF/	.
.	.	.	.	.	.	4dd\	.	4ff\	.	.	.
.	.	.	.	.	.	8cc\	.	8ee\	.	.	.
*	*	*	*	*	*	*	*	*custos:dd	*	*	*
!	!	!	!	!	!	!	!	!LO:LB:g=original	!	!	!
=108-	=108-	=108-	=108-	=108-	=108-	=108-	=108-	=108-	=108-	=108-	=108-
1GG	3:4:3	.	1GG	3:4:3	.	4b/	.	4dd\	.	1GG	.
.	.	.	.	.	.	2cc\	.	4cc\	.	.	.
.	.	.	.	.	.	.	.	2dd\	.	.	.
.	.	.	.	.	.	4b/	.	.	.	.	.
=109-	=109-	=109-	=109-	=109-	=109-	=109-	=109-	=109-	=109-	=109-	=109-
!LO:N:vis=0	!	!	!LO:N:vis=0	!	!	!LO:N:vis=0	!	!LO:N:vis=0	!	!LO:N:vis=0	!
0.C;	.	.	0.C;	.	.	0.cc;	.	0.cc;<	.	0.C;	.
==	==	==	==	==	==	==	==	==	==	==	==
*-	*-	*-	*-	*-	*-	*-	*-	*-	*-	*-	*-
!!!system-decoration: [(s1)][(s2,s3)]s4,s5
!!!RDF**kern: > = above
!!!RDF**kern: < = below
!!!ENC: Filip Voros
!!!END: 2022-11-13
!!!ENC: Jan Barakat
!!!END: 2022-12-01
